!!!COM: Beethoven, Ludwig van
!!!CDT: 1770///-1827///
!!!ODT: 1825///
!!!OTL: String Quartet No. 15 in A Minor, Op. 132
!!!OPS: Op. 132
!!!OMV: Mvmt. 3
!!!OMD: Molto adagio -- Andante
**kern	**dynam	**kern	**dynam	**kern	**dynam	**kern	**dynam
*staff4	*staff4	*staff3	*staff3	*staff2	*staff2	*staff1	*staff1
*Icello	*Icello	*Iviola	*Iviola	*Ivioln	*Ivioln	*Ivioln	*Ivioln
*clefF4	*clefF4	*clefC3	*clefC3	*clefG2	*clefG2	*clefG2	*clefG2
*k[]	*k[]	*k[]	*k[]	*k[]	*k[]	*k[]	*k[]
*C:	*C:	*C:	*C:	*C:	*C:	*C:	*C:
*met(C)	*met(C)	*met(C)	*met(C)	*met(C)	*met(C)	*met(C)	*met(C)
*M4/4	*M4/4	*M4/4	*M4/4	*M4/4	*M4/4	*M4/4	*M4/4
*MM54	*MM54	*MM54	*MM54	*MM54	*MM54	*MM54	*MM54
2r	.	2r	.	2r	.	(4c/	.
.	.	.	.	.	.	4a/	.
=1	=1	=1	=1	=1	=1	=1	=1
1r	.	2r	.	(4c/	.	4g/	.
.	.	.	.	4a/	.	[4cc\	.
.	.	(4C/	.	4G/) 4e/	.	4cc\]	.
.	.	4A/	.	(4c/	.	4f/	.
=2	=2	=2	=2	=2	=2	=2	=2
(4CC/	.	4G/	.	4e/	.	4g/)	.
4AA/)	.	4C/) 4c/	.	4f/)	.	4f/	.
2FF/	.	2C/ 2c/	.	2A/	.	2f/ 2a/	.
=3	=3	=3	=3	=3	=3	=3	=3
2AA/	.	2C/	.	2c/	.	2f/	.
2C/	.	2G/	.	2c/	.	2e/	.
=4	=4	=4	=4	=4	=4	=4	=4
2D/	.	2F/	.	2A/	.	2d/	.
2C/	.	2G/	.	2c/	.	2e/	.
=5	=5	=5	=5	=5	=5	=5	=5
(2AA/	.	(2C/	.	(2c/	.	2f/	.
4GG/	<	4D/	<	4B/	<	2g/	<
4C/)	.	4E/)	.	4e/)	.	.	.
=6	=6	=6	=6	=6	=6	=6	=6
2D/	p	2F/	p	2A/	.	2f/	.
2r	.	2r	.	2r	p	(4aa\	p
.	.	.	.	.	.	4dd\	.
=7	=7	=7	=7	=7	=7	=7	=7
2r	.	2r	.	(4a/	.	4ee\	.
.	.	.	.	[4d/	.	4ff\	.
(4G\	.	(4B/	.	4d/]	.	4gg\	.
4BB/	.	4D/ 4d/	.	4G/)	.	4ff\	.
=8	=8	=8	=8	=8	=8	=8	=8
4C/	.	4E/ 4c/	.	(4G/ 4g/	.	4ee\	.
4D/)	.	4F/)	.	4B/)	.	4g/)	.
2C/	.	2E/	.	2c/	.	2g/	.
=9	=9	=9	=9	=9	=9	=9	=9
2FF/	<	2F/	<	2c/	<	2a/	<
2EE/	.	2G/	.	2c/ 2g/	.	2cc\	.
=10	=10	=10	=10	=10	=10	=10	=10
2FF/	.	2F/	.	2c/	.	2a/	.
2GG/	.	2E/	.	2c/	.	2g/	.
=11	=11	=11	=11	=11	=11	=11	=11
2AA/	.	2C/	.	(4c/	.	2f/	.
.	.	.	.	4f/	.	.	.
(4BB/	>	4D/	>	4G/	>	2d/	>
4GG/)	.	4F/ 4G/	.	4B/)	.	.	.
=12	=12	=12	=12	=12	=12	=12	=12
2CC/ 2GG/	p	2E/ 2G/	p	2c/	p	2e/	.
(4G\	.	2r	.	2r	.	2r	p
4C/	.	.	.	.	.	.	.
=13	=13	=13	=13	=13	=13	=13	=13
4D\	.	(4G/	.	2r	.	2r	.
4E\	.	4C/	.	.	.	.	.
4F\	.	4D/	.	(4B/	.	(4g/	.
4E\	.	4E/	.	4G/	.	4c/	.
=14	=14	=14	=14	=14	=14	=14	=14
4D\)	.	4F/	.	4B/	.	4d/	.
4C/	.	4E/)	.	4c/)	.	4e/)	.
2AA/	.	2E/	.	2c/	.	2e/	.
=15	=15	=15	=15	=15	=15	=15	=15
2AA/	.	2C/	.	2e/	.	2cc\	.
2E\	<	2G/	<	2e/	<	2b\	<
=16	=16	=16	=16	=16	=16	=16	=16
2C/	.	2E/ 2G/	.	2G/ 2e/	.	2cc\	.
2F\	.	2A/	.	2c/	.	2a/	.
=17	=17	=17	=17	=17	=17	=17	=17
2D\	.	2F/	.	2f/	.	2b\	.
2C/	.	2G\ 2g\	.	2c/ 2e/	.	2cc\	.
=18	=18	=18	=18	=18	=18	=18	=18
2GG/	f	2G\ 2g\	f	2B/ 2d/	.	2d/ 2dd/	.
2r	>	2r	>	2r	f	(4gg\	f
.	.	.	.	.	.	4cc\	.
=19	=19	=19	=19	=19	=19	=19	=19
2r	.	4r	.	(4g/	p	4dd\	.
.	.	(4g\	p	4c/	.	4ee\	.
(4G\	p	4B/	.	4d/	.	4ff\	.
4C/	.	4c\	.	4e/	.	4ee\	.
=20	=20	=20	=20	=20	=20	=20	=20
4D\	.	4F/	.	4f/	.	4b\	.
4E\)	.	4G/)	.	4c/)	.	4cc\)	.
2AA/	.	2F/	.	2c/	.	2cc\	.
=21	=21	=21	=21	=21	=21	=21	=21
2AA/	.	2F/	.	2c/	.	2cc\	.
2GG/	<	2F/	<	2B/	<	2dd\	<
=22	=22	=22	=22	=22	=22	=22	=22
2C/	.	2E/	.	2c/	.	2g/	.
2FF/	.	2F/	.	2c/	.	2a/	.
=23	=23	=23	=23	=23	=23	=23	=23
2GG/	.	(2F/	.	(2B/	.	2d/	.
2CC/	.	4E/	.	4G/	.	2e/	.
.	.	4C/ 4G/	.	4c/)	>	.	.
=24	=24	=24	=24	=24	=24	=24	=24
2FF/	>	2C/)	.	2A/	p	2f/	>
2r	.	2r	p	2r	.	(4cc\	.
.	.	.	.	.	.	4aa\	.
=25	=25	=25	=25	=25	=25	=25	=25
2r	.	4r	.	(4c/	.	4ee\	.
.	.	(4C/	.	4a/	.	4ff\)	.
(4AA/	<	4A/	.	4cc/)	.	(4ff\	.
4F\	.	4a\)	.	(4A/	<	4dd\	<
=26	=26	=26	=26	=26	=26	=26	=26
4G\	.	(4e\	<	4G/	.	4cc\	.
4GG/)	.	4d\)	.	4f/)	.	4b\)	.
2AA/	p	2F/ 2c/	p	2f/	p	2cc\	p
=27	=27	=27	=27	=27	=27	=27	=27
2AA/	.	2F/ 2c/	.	2f/	.	2cc\	.
2GG/	<	2f\	<	2B/	<	2dd\	<
=28	=28	=28	=28	=28	=28	=28	=28
2C/	.	2e\	.	2c/	.	2g/	.
2FF/	.	2f\	.	2A/	.	2a/	.
=29	=29	=29	=29	=29	=29	=29	=29
2D/	p	2F/	p	2A/	p	2f/	p
2GG/	.	2D/	.	2B/	.	2g/	.
=30	=30	=30	=30	=30	=30	=30	=30
(4AA'/	.	(4A'/	.	(4c#'/	.	2e/	.
4AA'/	<	4A'/	<	4a'/	<	.	.
4AA'/	.	4A'/	.	4a'/	.	(4aa'\	<
4AA'/)	.	4A'/)	.	4a'/)	.	4aa'\)	.
=31	=31	=31	=31	=31	=31	=31	=31
*k[f#c#]	*k[f#c#]	*k[f#c#]	*k[f#c#]	*k[f#c#]	*k[f#c#]	*k[f#c#]	*k[f#c#]
*M3/8	*M3/8	*M3/8	*M3/8	*M3/8	*M3/8	*M3/8	*M3/8
8DD'/L	f	8F#'/L 8A'/	f	8dd'\L	f	4.aa\	f
8D'/J	.	8f#'/J	.	8d'/	.	.	.
8r	.	8r	.	8ff#\J	.	.	.
=32	=32	=32	=32	=32	=32	=32	=32
8C#\L	p	8A'\L	p	16r	p	[4.aa\	p
.	.	.	.	16ee\	.	.	.
8c#'\J	.	8e'\J 8a'\	.	32r	.	.	.
.	.	.	.	(32a\LLL	.	.	.
.	.	.	.	32dd\	.	.	.
.	.	.	.	32cc#\JJJ	.	.	.
8r	.	8r	.	32b\LLL	.	.	.
.	.	.	.	32a\	.	.	.
.	.	.	.	32b\	.	.	.
.	.	.	.	32cc#\JJJ)	.	.	.
=33	=33	=33	=33	=33	=33	=33	=33
8BB'\L	f	8F#'\L	f	8dd'\L	f	4.aa\_	f
8B'\J	.	8d'\J 8f#'\	.	8d'/	.	.	.
8r	.	8r	.	8dd\J	.	.	.
=34	=34	=34	=34	=34	=34	=34	=34
8AA'/L	p	8F#'/L	p	16r	.	4.aa\]	p
.	.	.	.	16cc#\	p	.	.
8A'\J	.	8f#'\J 8cc#'\	.	32r	.	.	.
.	.	.	.	(32f#/LLL	.	.	.
.	.	.	.	32b/	.	.	.
.	.	.	.	32a/JJJ	.	.	.
8r	.	8r	.	32g/LLL	.	.	.
.	.	.	.	32f#/	.	.	.
.	.	.	.	32g/	.	.	.
.	.	.	.	32a/JJJ)	.	.	.
=35	=35	=35	=35	=35	=35	=35	=35
8GG'/L	f	8B'\L	f	8d'/L	f	8bb'\L	<
8G'/J	.	8d'\J 8b'\	.	8dd'\J	.	8G'/	.
8r	.	8r	.	8r	.	8bb\J	.
=36	=36	=36	=36	=36	=36	=36	=36
8F#'\L	p	8d'\L	p	8a'\L	p	16r	.
.	.	.	.	.	.	16aa\	p
8f#'\J	.	8dd'\J	.	8aa'\J	.	32r	.
.	.	.	.	.	.	32aa'\LLL	.
.	.	.	.	.	.	32bb'\	.
.	.	.	.	.	.	32ccc#'\JJJ	.
[8BB/	.	[8D/	.	8r	.	32ddd'\LLL	.
.	.	.	.	.	.	32eee'\	.
.	.	.	.	.	.	32fff#'\	.
.	.	.	.	.	.	32ggg'\JJJ	.
=37	=37	=37	=37	=37	=37	=37	=37
(8BB/L]	.	(8D/L]	.	16r	.	(8aaa\L	.
.	.	.	.	(16dd\LL	<	.	.
8C#/	<	8E/	<	16a\	.	8ggg\	<
.	.	.	.	16ee\	.	.	.
8D/J)	.	8F#/J)	.	16a\	.	8fff#\J)	.
.	.	.	.	16dd\JJ)	.	.	.
=38	=38	=38	=38	=38	=38	=38	=38
(8E/L	.	(8A/	.	(16cc#/LL	.	(16eee\LL	.
.	.	.	.	16c#/	.	16ee\JJ	.
8GG#/	.	8.E/L	.	16d/	.	8.bb\L	>
.	.	.	.	16e/	.	.	.
8AA/J)	>	.	.	16c#/	>	.	.
.	.	16G/Jk)	>	16e/JJ)	.	16aa\Jk)	.
=39	=39	=39	=39	=39	=39	=39	=39
8DD'/L	f	4f#'\	f	8f#'/L 8dd'/	f	4.aa\	f
8D'/J	.	.	.	8d'/	.	.	.
8r	.	8r	.	8ff#\J	.	.	.
=40	=40	=40	=40	=40	=40	=40	=40
8C#'\L	p	8E'/L	p	16r	.	16aa\LL	p
.	.	.	.	16ee\	p	16A/JJ	.
8c#'\J	.	8a'\J	.	32r	.	16r	.
.	.	.	.	(32a\LLL	.	.	.
.	.	.	.	32dd\	.	[16eee\	.
.	.	.	.	32cc#\JJJ	.	.	.
8r	.	8r	.	32b\LLL	.	32eee\LLL]	.
.	.	.	.	32a\	.	(64ddd\L	.
.	.	.	.	.	.	64ccc#\J)	.
.	.	.	.	32b\	.	32bb'\	.
.	.	.	.	32cc#\JJJ)	.	32aa'\JJJ	.
=41	=41	=41	=41	=41	=41	=41	=41
8BB'\L	f	8D'/L	f	8dd'/L	f	4.aa\	f
8B'\J	.	8d/J	.	8d'/	.	.	.
8r	.	8r	.	8ddd\J	.	.	.
=42	=42	=42	=42	=42	=42	=42	=42
8AA\L	p	8F#'/L	p	16r	.	16aa\LL	p
.	.	.	.	16ccc#\	p	16f#/JJ	.
8A'\J	.	8f#'\J	.	32r	.	16r	.
.	.	.	.	(32ff#\LLL	.	.	.
.	.	.	.	32bb\	.	[16ccc#\	.
.	.	.	.	32aa\JJJ	.	.	.
16r	.	16r	.	32gg\LLL	.	32ccc#\LLL]	.
.	.	.	.	32ff#\	.	(64bb\L	.
.	.	.	.	.	.	64aa\J)	.
16A\	.	16cn\ 16d\	.	32gg\	.	32gg'\	.
.	.	.	.	32aa\JJJ)	.	32ff#'\JJJ	.
=43	=43	=43	=43	=43	=43	=43	=43
8GG'/L	f	8G'\L	f	8b'\L	f	8bb'\L	f
8G'\J	.	8d'\J 8b'\	.	8bb'\J	.	8B'/	.
8r	.	8r	.	8r	.	8bb\J	.
=44	=44	=44	=44	=44	=44	=44	=44
8FF#'/L	p	8A'\L 8d'\	p	8a'\L	p	16r	.
.	.	.	.	.	.	(32aa\LLL	p
.	.	.	.	.	.	32gg#\JJJ)	.
8F#'/J	.	8dd'\J	.	8aa'\J	.	32r	.
.	.	.	.	.	.	32aa\LLL	.
.	.	.	.	.	.	32bb\	.
.	.	.	.	.	.	32ccc#\JJJ	.
[8BB/	.	[8D/	.	8r	.	(32ddd\LLL	.
.	.	.	.	.	.	32eee\JJJ)	.
.	.	.	.	.	.	(32fff#\LLL	.
.	.	.	.	.	.	32gggn\JJJ)	.
=45	=45	=45	=45	=45	=45	=45	=45
(8BB/L]	<	(8D/L]	<	16r	<	(8aaa\L	<
.	.	.	.	16dd\	.	.	.
8C#/	.	8E/	.	16r	.	8ggg\	.
.	.	.	.	16aa\	.	.	.
8D/J	.	8F#/J)	.	16r	.	8fff#\J	.
.	.	.	.	16a/	.	.	.
=46	=46	=46	=46	=46	=46	=46	=46
*	*	*^	*	*	*	*	*
8E/L	.	(8c#/L	4.E\	.	16r	.	16eee\LL	.
.	.	.	.	.	16a/	.	16ee\JJ)	.
8GG#/	.	8d/	.	>	16r	.	8.bb\L	>
.	.	.	.	.	16e/	>	.	.
16AA/L	>	16c#/L	.	.	16r	.	.	.
16BB/JJ)	.	16d/JJ)	.	.	16ee\	.	32aa\LL	.
.	.	.	.	.	.	.	32gg#\JJJ)	.
*	*	*v	*v	*	*	*	*	*
=47	=47	=47	=47	=47	=47	=47	=47
16C#\LL	p	16E'/LL	p	(8ee\L	p	8ggn\	p
16c#'\JJ	.	16e'/JJ	.	.	.	.	.
16r	.	16r	.	8a\	.	8r	.
16B\	.	16d\	.	.	.	.	.
16r	.	16r	.	8gn\J)	.	8r	.
16c#\	.	16e\	.	.	.	.	.
=48	=48	=48	=48	=48	=48	=48	=48
16r	.	16r	.	4f#/	.	(8ddd\L	.
16D\	.	16F#/ 16A/	.	.	.	.	.
16r	.	16r	.	.	.	8gg\	.
16E\	.	16c#\	.	.	.	.	.
16r	.	16r	.	8r	.	8ff#\J)	.
16D\	.	16d\	.	.	.	.	.
=49	=49	=49	=49	=49	=49	=49	=49
16AA\LL	.	16C#/LL	.	(8ee\L	.	8ee\	.
16A\JJ	.	16c#/JJ	.	.	.	.	.
16r	.	16r	.	16a\L)	.	8r	.
16B\	.	16d\	.	16a'\JJ	.	.	.
16r	.	16r	.	8g/	.	8r	.
16c#\	.	16e\	.	.	.	.	.
=50	=50	=50	=50	=50	=50	=50	=50
16r	.	16r	.	(16f#\LL	.	(8ddd\L	.
16d\	.	16f#\	.	16dd\	.	.	.
16r	.	16r	.	16cc#\	.	16gg\L)	.
16e\	.	16cc#\	.	[16aa\JJ)	.	16gg'\JJ	.
16r	.	16r	.	32aa\LLL]	.	(16ff#\LL	.
.	.	.	.	(32d/	.	.	.
16d\	.	16dd\	.	32e/	.	32gg\L	.
.	.	.	.	32f#/JJJ)	.	32aa\JJJ)	.
=51	=51	=51	=51	=51	=51	=51	=51
16r	.	16r	.	16r	.	(32aa#\LLL	pp
.	.	.	.	.	.	32b\JJJ)	.
32Gn\LLL	pp	32B\LLL 32d\	pp	32G/LLL 32b/	pp	32r	.
32G\JJJ	.	32B\JJJ 32d\	.	32G/JJJ 32b/	.	32bb\	.
16r	.	16r	.	16r	.	(32ff#\LLL	.
.	.	.	.	.	.	32g\JJJ)	.
32G\LLL	.	32B\LLL 32d\	.	32G/LLL 32b/	.	32r	.
32G\JJJ	.	32B\JJJ 32d\	.	32G/JJJ 32b/	.	32gg\	.
16r	.	16r	.	16r	.	(32dd#/LLL	.
.	.	.	.	.	.	32e/JJJ)	.
32G\LLL	.	32B\LLL 32e\	.	32G/LLL 32b/	.	32r	.
32G\JJJ	.	32B\JJJ 32e\	.	32G/JJJ 32b/	.	32ee\	.
=52	=52	=52	=52	=52	=52	=52	=52
16r	.	16r	.	16r	.	(32ddn/LLL	.
.	.	.	.	.	.	32e/JJJ)	.
32A\LLL	.	32c#\LLL 32e\	.	32g/LLL 32a/	.	32r	.
32A\JJJ	.	32c#\JJJ 32e\	.	32g/JJJ 32a/	.	32cc#\	.
16r	.	16r	.	16r	.	(32dd/LLL	.
.	.	.	.	.	.	32e/JJJ)	.
32A\LLL	.	32c#\LLL 32e\	.	32g/LLL 32a/	.	32r	.
32A\JJJ	.	32c#\JJJ 32e\	.	32g/JJJ 32a/	.	32ee\	.
16r	.	16r	.	16r	.	(32ff#\LLL	.
.	.	.	.	.	.	32g\JJJ)	.
32A\LLL	.	32c#\LLL 32e\	.	32g/LLL 32a/	.	32r	.
32A\JJJ	.	32c#\JJJ 32e\	.	32g/JJJ 32a/	.	32gg\	.
=53	=53	=53	=53	=53	=53	=53	=53
16r	<	16r	<	16r	<	(32gg#\LLL	<
.	.	.	.	.	.	32ee\JJJ)	.
32C#/LLL	.	32G/LLL 32e/	.	32g/LLL 32a/	.	32r	.
32C#/JJJ	.	32E/JJJ 32G/	.	32g/JJJ 32a/	.	32aa\	.
16r	.	16r	.	16r	.	(32bb-\LLL	.
.	.	.	.	.	.	32ee\JJJ)	.
32C#/LLL	.	32E/LLL 32G/	.	32g/LLL 32a/	.	32r	.
32C#/JJJ	.	32E/JJJ 32G/	.	32g/JJJ 32a/	.	32bbn\	.
16r	.	16r	.	16r	.	(32bb-\LLL	.
.	.	.	.	.	.	32ee\JJJ)	.
32C#/LLL	.	32E/LLL 32G/	.	32g/LLL 32a/	.	32r	.
32C#/JJJ	.	32E/JJJ 32G/	.	32g/JJJ 32a/	.	32aa\	.
=54	=54	=54	=54	=54	=54	=54	=54
16r	.	16r	.	16r	.	(32bb-\LLL	.
.	.	.	.	.	.	32ee\JJJ)	.
32C#/LLL	.	32E/LLL 32G/	.	32g/LLL 32a/	.	32r	.
32C#/JJJ	.	32E/JJJ 32G/	.	32g/JJJ 32a/	.	32bbn\	.
16r	.	16r	.	16r	.	(32bb-\LLL	.
.	.	.	.	.	.	32ee\JJJ)	.
32C#/LLL	.	32E/LLL 32G/	.	32g/LLL 32a/	.	32r	.
32C#/JJJ	.	32E/JJJ 32G/	.	32g/JJJ 32a/	.	32aa\	.
16r	.	16r	.	16r	.	(32bb-\LLL	.
.	.	.	.	.	.	32ee\JJJ)	.
32GG/LLL	.	32E/LLL 32c#/	.	32c#/LLL 32e/	.	32r	.
32GG/JJJ	.	32E/JJJ 32c#/	.	32b/JJJ	.	32bbn\	.
=55	=55	=55	=55	=55	=55	=55	=55
(8GG/L	.	(8E/ 8c#/	.	(8b/L	.	(8bb\L	.
8GG#/	f	8D/) 8B/	f	8d/J) 8f#/	f	8ddd\	f
*	*	*	*	*^	*	*	*
[8AA/J)	.	8D/ 8d/	.	8f#/	[8A\	.	8fff#\J	.
=56	=56	=56	=56	=56	=56	=56	=56	=56
(8AA/L]	.	(8F#/L 8d/	.	(8f#/L	8A\L]	.	16aaa\LL	.
.	.	.	.	.	.	.	16aa\JJ	.
8CC#/	.	[8G/J)	.	[8a/J)	[8A\J	.	[8eee\)	.
16DD/L	>	(32G/LLL]	.	(32a/LLL]	32A\]	.	32eee\LLL]	.
*	*	*	*	*v	*v	*	*	*
.	.	32F#/	>	32dd/	>	(32ddd\	>
16AA/JJ)	.	32E/	.	32cc#/	.	32eee\	.
.	.	32D/JJJ)	.	32dd/JJJ)	.	32fff#\JJJ)	.
=57	=57	=57	=57	=57	=57	=57	=57
16AA\LL	p	16C#/LL	p	(8ee\L	p	8ggg\	p
16A\JJ	.	16c#/JJ	.	.	.	.	.
16r	.	16r	.	16a\L)	.	8r	.
16B\	.	16d\	.	16a'\JJ	.	.	.
16r	.	16r	.	8g/	.	8r	.
16c#\	.	16e\	.	.	.	.	.
=58	=58	=58	=58	=58	=58	=58	=58
16r	.	16r	.	4f#/	.	(8ddd\L	.
16D\	.	16F#/ 16A/	.	.	.	.	.
16r	.	16r	.	.	.	16gg\L	.
16E\	.	16c#\	.	.	.	16gg'\JJ)	.
16r	.	16r	.	8r	.	8ff#\	.
16D\	.	16d\	.	.	.	.	.
=59	=59	=59	=59	=59	=59	=59	=59
16A\LL	.	16c#\LL 16e\	.	32ee'\LLL	.	8ee\	.
.	.	.	.	(32ee\	.	.	.
16AA\JJ	.	16c#\JJ	.	32ff#\	.	.	.
.	.	.	.	32ee\JJJ)	.	.	.
16r	.	16r	.	32a'/LLL	.	8r	.
.	.	.	.	(32a/	.	.	.
16A\	.	16B\ 16d\	.	32b/	.	.	.
.	.	.	.	32a/JJJ)	.	.	.
16r	.	16r	.	8g/	.	8r	.
16A\	.	16c#\ 16e\	.	.	.	.	.
=60	=60	=60	=60	=60	=60	=60	=60
16r	.	16r	.	16f#'\LL	.	32ddd'\LLL	.
.	.	.	.	.	.	(32ddd\	.
16d\	.	16f#\	.	16ff#'\	.	32eee\	.
.	.	.	.	.	.	32ddd\JJJ)	.
16r	.	16r	.	16cc#'\	.	32gg'\LLL	.
.	.	.	.	.	.	(32gg\	.
16e\	.	16cc#\	.	[16aa\JJ	.	32aa\	.
.	.	.	.	.	.	32gg\JJJ)	.
16r	.	16r	.	32aa\LLL]	.	32ff#'\LLL	.
.	.	.	.	(32a/	.	32ff#\	.
16d\	.	16dd\	.	32g/	.	32gg\	.
.	.	.	.	32f#/JJJ)	.	32aa\JJJ)	.
=61	=61	=61	=61	=61	=61	=61	=61
16r	.	16r	.	32G/LLL 32g/	pp	32aa#\LLL	pp
.	.	.	.	32G/JJJ 32g/	.	32b\JJJ	.
32G\LLL	pp	32B\LLL 32d\	pp	16r	.	32r	.
32G\JJJ	.	32B\JJJ 32d\	.	.	.	32bb\	.
16r	.	16r	.	32G/LLL 32b/	.	(32ff#\LLL	.
.	.	.	.	32G/JJJ 32b/	.	32g\JJJ)	.
32G\LLL	.	32B\LLL 32d\	.	16r	.	32r	.
32G\JJJ	.	32B\JJJ 32d\	.	.	.	32gg\	.
16r	.	16r	.	32G/LLL 32b/	.	32dd#/LLL	.
.	.	.	.	32G/JJJ 32b/	.	32e/JJJ	.
32G\LLL	.	32B\LLL 32g\	.	16r	.	32r	.
32G\JJJ	.	32B\JJJ 32g\	.	.	.	32ee\	.
=62	=62	=62	=62	=62	=62	=62	=62
16r	.	16r	.	32g/LLL 32a/	.	(32ddn/LLL	.
.	.	.	.	32g/JJJ 32a/	.	32e/JJJ)	.
32A\LLL 32g\	.	32c#\LLL 32e\	.	16r	.	32r	.
32A\JJJ 32g\	.	32c#\JJJ 32e\	.	.	.	32cc#\	.
16r	.	16r	.	32g/LLL 32a/	.	(32dd/LLL	.
.	.	.	.	32g/JJJ 32a/	.	32e/JJJ)	.
32A\LLL 32g\	.	32c#\LLL 32e\	.	16r	.	32r	.
32A\JJJ 32g\	.	32c#\JJJ 32e\	.	.	.	32ee\	.
16r	.	16r	.	32g/LLL 32a/	.	(32ff#\LLL	.
.	.	.	.	32g/JJJ 32a/	.	32g\JJJ)	.
32A\LLL 32g\	.	32c#\LLL 32e\	.	16r	.	32r	.
32A\JJJ 32g\	.	32c#\JJJ 32e\	.	.	.	32gg\	.
=63	=63	=63	=63	=63	=63	=63	=63
16r	<	16r	<	32e/LLL 32ee/	<	(32gg#\LLL	<
.	.	.	.	32e/JJJ 32ee/	.	32ee\JJJ)	.
32A\LLL 32g\	.	32C#/LLL 32G/	.	16r	.	32r	.
32A\JJJ 32g\	.	32C#/JJJ 32G/	.	.	.	32aan\	.
16r	.	16r	.	32e/LLL 32ee/	.	(32aa#\LLL	.
.	.	.	.	32e/JJJ 32ee/	.	32ee\JJJ)	.
32A\LLL 32g\	.	32C#/LLL 32G/	.	16r	.	32r	.
32A\JJJ 32g\	.	32C#/JJJ 32G/	.	.	.	32bb\	.
16r	.	16r	.	32e/LLL 32ee/	.	(32aa#\LLL	.
.	.	.	.	32e/JJJ 32ee/	.	32ee\JJJ)	.
32A\LLL 32g\	.	32C#/LLL 32G/	.	16r	.	32r	.
32A\JJJ 32g\	.	32C#/JJJ 32G/	.	.	.	32aan\	.
=64	=64	=64	=64	=64	=64	=64	=64
16r	.	16r	.	32e/LLL 32ee/	.	(32aa#\LLL	.
.	.	.	.	32e/JJJ 32ee/	.	32ee\JJJ)	.
32A\LLL 32g\	.	32C#/LLL 32G/	.	16r	.	32r	.
32A\JJJ 32g\	.	32C#/JJJ 32G/	.	.	.	32bb\	.
16r	.	16r	.	32e/LLL 32ee/	.	(32aa#\LLL	.
.	.	.	.	32e/JJJ 32ee/	.	32ee\JJJ)	.
32A\LLL 32g\	.	32C#/LLL 32G/	.	16r	.	32r	.
32A\JJJ 32g\	.	32C#/JJJ 32G/	.	.	.	32aan\	.
16r	.	16r	.	32e/LLL 32cc#/	.	(32aa#\LLL	.
.	.	.	.	32e/JJJ 32cc#/	.	32ee\JJJ)	.
32GG/LLL	.	32E/LLL 32c#/	.	32c#/LLL 32e/	.	32r	.
32GG/JJJ	.	32E/JJJ 32c#/	.	32c#/JJJ 32e/	.	32bb\	.
=65	=65	=65	=65	=65	=65	=65	=65
(8GG/	f	(8E/L 8c#/	f	(8b/L	f	(8bb\L	f
8GG#/	.	8D/) 8B/	.	8d/) 8f#/	.	8ddd\	.
[8AA/)	.	8D/J 8d/	.	[8A/J [8f#/	.	8fff#\J	.
=66	=66	=66	=66	=66	=66	=66	=66
*	*	*	*	*^	*	*	*
(8AA/L]	.	8F#/L 8d/	.	8f#/L]	8A\L]	.	16aaa\LL	.
.	.	.	.	.	.	.	16aan\J)	.
8CC#/	.	[8G/J	.	[8a/J	[8A\J	.	[8eee\J	.
16DD/L	>	(32G/LLL]	>	(32a/LLL]	32A\]	.	(32eee\LLL]	>
*	*	*	*	*v	*v	*	*	*
.	.	32F#/	.	32dd/	>	32ddd\	.
16D/JJ)	.	32E/	.	32g/	.	32ccc#\	.
.	.	32D/JJJ)	.	32f#/JJJ)	.	32ddd\JJJ)	.
=67	=67	=67	=67	=67	=67	=67	=67
(16Cn/LL	p	(8F#/	p	(8f#/L	p	(4ddd\	p
16AA#/	.	.	.	.	.	.	.
16BB/	.	4D/)	.	8dd/	.	.	.
16C/	.	.	.	.	.	.	.
16D/	.	.	.	8d/J)	.	8ff#\	.
16C/JJ)	.	.	.	.	.	.	.
=68	=68	=68	=68	=68	=68	=68	=68
(16Cn/LL	.	[4.D/	.	8r	.	4.gg\)	.
16AA#/	.	.	.	.	.	.	.
16BB/	.	.	.	(8d/L	.	.	.
16C#/	.	.	.	.	.	.	.
16D/	.	.	.	8g/J)	.	.	.
16BB/JJ)	.	.	.	.	.	.	.
=69	=69	=69	=69	=69	=69	=69	=69
(16BB/LL	.	4.D/_	.	8r	.	4ff#\	.
16GG#/	.	.	.	.	.	.	.
16AAn/	.	.	.	(8d/L	.	.	.
16C#/	.	.	.	.	.	.	.
16D/	.	.	.	8f#/J)	.	(16ff#\LL	.
16AA/JJ)	.	.	.	.	.	32gg\L	.
.	.	.	.	.	.	32aa\JJJ)	.
=70	=70	=70	=70	=70	=70	=70	=70
(16AA/LL	.	4.D/_	.	8r	.	8bb\L	.
16FF#/	.	.	.	.	.	.	.
16GGn/	.	.	.	(8d/L	.	8bb\J	.
16C#/	.	.	.	.	.	.	.
16D/	.	.	.	8b/J)	.	(16bb\LL	.
16GG/JJ)	.	.	.	.	.	32ccc#\L	.
.	.	.	.	.	.	32ddd\JJJ)	.
=71	=71	=71	=71	=71	=71	=71	=71
(16GG/LL	.	16D/LL]	<	16r	.	(8ddd\L	<
16EE#/	<	(16c#/	.	(16cc#\LL	<	.	.
16FF#/	.	16d/	.	16dd\	.	8aa\	.
16EEn/	.	16c#/	>	16cc#\	.	.	.
16DD/	>	16d/	.	16dd\	>	8ff#\J)	>
16D/JJ)	.	16cn/JJ)	.	16ccn\JJ)	.	.	.
=72	=72	=72	=72	=72	=72	=72	=72
(16DD/LL	.	(16cn/LL	.	(16ccn\LL	.	[8gg\	.
16D/	.	16A#/	.	16a#\	.	.	.
16DD/	.	16B/	.	16b\	.	24gg\LL]	.
.	.	.	.	.	.	(24gg\	.
16D/	.	16c/	.	16cc\	.	.	.
.	.	.	.	.	.	24aa\JJ	.
16DD/	.	16d/	.	16dd\	.	24bb\LL	.
.	.	.	.	.	.	24aa\	.
16D/JJ)	.	16B/JJ)	.	16b\JJ)	.	.	.
.	.	.	.	.	.	24gg\JJ)	.
=73	=73	=73	=73	=73	=73	=73	=73
(16DD/LL	.	(16B/LL	.	(16b\LL	.	(16gg\LK	.
16D/	.	16G#/	.	16g#\	.	8ff#\	.
16DD/	.	16An/	.	16an\	.	.	.
16D/	.	16c#/	.	16cc#\	.	16ff#\Jk)	.
16DD/	.	16d/	.	16dd\	.	(16ff#\LL	.
16D/JJ)	.	[16A/JJ)	.	[16a\JJ)	.	32gg\L	.
.	.	.	.	.	.	32aa\JJJ)	.
=74	=74	=74	=74	=74	=74	=74	=74
(16DD/LL	.	(16A/LL]	.	(16a/LL]	.	(32aa#\LLL	.
.	.	.	.	.	.	32bb\JJ)	.
16D/	.	16F#/	.	16f#/	.	8bb\	.
16DD/	.	16Gn/	.	16gn/	.	.	.
16D/	.	16c#/	.	16cc#/	.	16bb\Jk	.
16DD/	.	16d/	.	16dd/	.	(16bb\LL	.
16D/JJ)	.	16G/JJ)	.	16g/JJ)	.	32ccc#\L	.
.	.	.	.	.	.	32ddd\JJJ)	.
=75	=75	=75	=75	=75	=75	=75	=75
(16DD/LL	<	(16G/LL	<	(16g/LL	<	(16ddd\LK	<
16D/	.	16F#/	.	16f#/	.	8aan\	.
16FF#/	.	16d/	.	16dd/	.	.	.
16D/	.	16A#/	.	16a#/	.	16aa#\L	.
16GG#/	.	16D/	.	16cc#/	.	16ccc#\	.
16D/JJ)	.	16B/JJ)	.	16b/JJ)	.	16bb\JJ)	.
=76	=76	=76	=76	=76	=76	=76	=76
(16AA/LL	.	(16d/LL	.	(16dd/LL	.	(8bb\L	.
16D/	.	16F#/	.	16f#/)	.	.	.
16AA/	.	16An/	.	(16f#/	.	8.dd\	.
16D/	>	16F#/	>	16An/	>	.	.
16AA/	.	16A/	.	16g/	.	.	.
16C#/JJ)	.	16G/JJ)	.	16A/JJ)	.	16ee\Jk)	>
=77	=77	=77	=77	=77	=77	=77	=77
(8AA/L	p	32F#/LLL	p	32f#/LLL	p	(8ee\L	p
.	.	(32d/	.	(32dd/	.	.	.
.	.	32f#/	.	32ff#/	.	.	.
.	.	32e/JJJ	.	32ee/JJJ	.	.	.
8DD/	<	32d/LLL	.	32dd/LLL	.	8ff#\	.
.	.	32c#/	<	32cc#/	<	.	.
.	.	32B/	.	32b/	.	.	.
.	.	32A/JJJ	.	32a/JJJ	.	.	.
8EE/J	.	32G/LLL	.	32g/LLL	.	8gg\J	<
.	.	32e/	.	32ee/	.	.	.
.	.	32c#/	.	32cc#/	.	.	.
.	.	32G/JJJ	.	32g/JJJ	.	.	.
=78	=78	=78	=78	=78	=78	=78	=78
8FF#/L	.	32F#/LLL	.	32f#/LLL	.	8aan\L	.
.	.	32d/	.	32dd/	.	.	.
.	.	32A/	.	32a/	.	.	.
.	.	32F#/JJJ	.	32f#/JJJ	.	.	.
8GG#/	.	32Fn/LLL	.	32fn/LLL	.	8bb\	.
.	.	32d/	.	32dd/	.	.	.
.	.	32B/	.	32b/	.	.	.
.	.	32F/JJJ	.	32f/JJJ	.	.	.
8AA/J)	>	32E/LLL	>	32e/LLL	>	8ccc#\J)	>
.	.	32c#/	.	32cc#/	.	.	.
.	.	32G/)	.	32g/	.	.	.
.	.	32E/JJJ	.	32e/JJJ)	.	.	.
=79	=79	=79	=79	=79	=79	=79	=79
(32D\LLL	p	(8F#/	p	(8f#/	p	8ddd\L	p
32F#\	.	.	.	.	.	.	.
32A\	.	.	.	.	.	.	.
32Gn\JJJ	.	.	.	.	.	.	.
32F#\LLL	.	4D/)	.	[4d/) [4dd/	.	(16aa\L	.
32E\	<	.	.	.	.	.	.
32D\	.	.	.	.	.	16ff#\)	<
32C#\JJJ	.	.	.	.	.	.	.
32BB\LLL	.	.	.	.	.	(16ff#\	.
32G\	.	.	.	.	.	.	.
32D\	.	.	.	.	.	16gg\JJ)	.
32BB\JJJ	.	.	.	.	.	.	.
=80	=80	=80	=80	=80	=80	=80	=80
32AA/LLL	.	8D/L	<	8d/L] 8dd/]	<	(16gg#\LL	.
32F#/	.	.	.	.	.	.	.
32D/	.	.	.	.	.	16aa\JJ)	.
32AA/JJJ	.	.	.	.	.	.	.
32GG#/LLL	.	(8D/	.	(8d/ 8dd/	.	16aa#\LL	.
32Fn/	.	.	.	.	.	.	.
32D/	.	.	.	.	.	16bb\JJ	.
32GG#/JJJ	.	.	.	.	.	.	.
32GGn/LLL	.	[8E/J)	>	8e/J) [8ee/	>	(16bb\LL	>
32AA/	>	.	.	.	.	.	.
32GG/	.	.	.	.	.	16ccc#\JJ)	.
32EE/JJJ)	.	.	.	.	.	.	.
=81	=81	=81	=81	=81	=81	=81	=81
(32DD/LLL	p	(16E/LL]	p	(16ee\LL]	p	(16ccc#\LL	p
32AA/	.	.	.	.	.	.	.
32FF#/	.	16F#/JJ)	.	16ff#\JJ)	.	16ddd\JJ)	.
32DD/JJJ)	.	.	.	.	.	.	.
8DD'/L	.	8D'/L	.	8dd'\L	.	8ddd'\L	.
(8DD'/J	p	(8D'/J	p	(8dd'\J	p	(8ddd'\J	p
=82	=82	=82	=82	=82	=82	=82	=82
8DD'/)	.	8D'/)	.	8dd'\)	.	8ddd'\)	.
8r	.	8r	.	8r	.	8r	.
(8E'\	pp	(8G'/	pp	(8ccn'\	pp	(8cccn'\	pp
=83	=83	=83	=83	=83	=83	=83	=83
8E'\)	.	8G'/)	.	8ccn'\)	.	8cccn'\)	.
8r	.	8r	.	8r	.	8r	.
8Fn\	.	8A/	.	8cc\	.	8ccc\	.
=84	=84	=84	=84	=84	=84	=84	=84
*k[]	*k[]	*k[]	*k[]	*k[]	*k[]	*k[]	*k[]
*met(C)	*met(C)	*met(C)	*met(C)	*met(C)	*met(C)	*met(C)	*met(C)
*M4/4	*M4/4	*M4/4	*M4/4	*M4/4	*M4/4	*M4/4	*M4/4
4r	.	4r	.	4r	.	4r	.
4.Fn\	<	4.A/	<	4ccn\	<	4.cccn\	<
.	.	.	.	(4c/	>	.	.
8r	>	8r	>	.	.	8r	>
4r	.	4r	.	4a/	.	4r	.
=85	=85	=85	=85	=85	=85	=85	=85
2r	.	(4C/	.	8a/L	.	1r	.
.	.	.	.	8g/J	.	.	.
.	.	4.A/	.	4.cc\)	.	.	.
(4C/	.	.	.	.	.	.	.
.	.	8E/) 8G/	.	(8cc\	.	.	.
[4A\	.	(4c\	.	4f/	.	.	.
=86	=86	=86	=86	=86	=86	=86	=86
8A\L]	.	4e\	.	4g/	.	2r	.
8G\J	.	.	.	.	.	.	.
4.c\)	.	4A/)	.	[4f/	.	.	.
.	.	(4F/ 4A/	.	4f/])	.	2ff\	.
(8c\	.	.	.	.	.	.	.
[4F\)	.	[4a\)	.	[4cc\	.	.	.
=87	=87	=87	=87	=87	=87	=87	=87
8F\]	.	(4a\]	.	4cc\]	.	2ff\	.
(8AA/	.	.	.	.	.	.	.
4A\)	.	4f\	.	2cc\	.	.	.
(8c\L	.	4G/	.	.	.	2ee\	.
8C\J	.	.	.	.	.	.	.
4c\)	.	4c\)	.	[4g/	.	.	.
=88	=88	=88	=88	=88	=88	=88	=88
(8d\L	.	(4A/	.	(4g/]	.	2dd\	.
8D\J	.	.	.	.	.	.	.
4.d\)	.	4a\	.	4f/	.	.	.
.	.	4cc\	.	4g/)	.	2ee\	.
(8C/	.	.	.	.	.	.	.
4c\)	.	4g\)	.	[4cc\	.	.	.
=89	=89	=89	=89	=89	=89	=89	=89
(8A\L	.	4f\	.	(4cc\]	.	2ff\	.
8AA/J	<	.	.	.	.	.	.
4A\	.	4c\	<	2ff\	<	.	.
8G\L	.	4B\ 4d\	.	.	.	2gg\	<
8GG/J)	.	.	.	.	.	.	.
(4c\	.	4c\ 4e\	.	[4ee\)	.	.	.
=90	=90	=90	=90	=90	=90	=90	=90
8d\L	p	(4.a\	p	(4ee\]	p	2ff\	p
8D\J	.	.	.	.	.	.	.
4.d\)	.	.	.	4dd\)	.	.	.
.	.	8g\	.	.	.	.	.
.	.	8f\L	.	(4aa\	.	2r	.
(8e\	.	8g\J	.	.	.	.	.
[4f\)	.	4a\)	.	[4dd\)	.	.	.
=91	=91	=91	=91	=91	=91	=91	=91
8f\]	.	(4a\	.	8dd\]	.	1r	.
(8g\	.	.	.	(8ee\	.	.	.
8f\L	.	4.d\)	.	4.ff\)	.	.	.
8G\J)	.	.	.	.	.	.	.
(4G\	.	.	.	.	.	.	.
.	.	(8e\	.	(8gg\	.	.	.
[4BB/)	.	[4G/) [4d/	.	4ff\)	.	.	.
=92	=92	=92	=92	=92	=92	=92	=92
8BB/]	.	8G/] 8d/]	.	4ee\	.	2r	.
(8C/	.	(8G/ 8e/	.	.	.	.	.
4.D/)	.	4F/)	.	4B/ [4g/	.	.	.
.	.	(4E/ 4G/	<	4c/ 4g/]	.	2gg\	.
(8C/	<	.	.	.	.	.	.
[4c\)	.	4G/) 4e/	.	[4g/	<	.	.
=93	=93	=93	=93	=93	=93	=93	=93
8c\]	.	(4c\	.	4g/]	.	2aa\	<
(8c\	.	.	.	.	.	.	.
4.F\)	.	4cc\)	.	(4f/	.	.	.
.	.	(4cc\	.	4g/	.	2ccc\	.
(8F\	.	.	.	.	.	.	.
[4E\)	.	4G\) 4g\	.	[4gg\)	.	.	.
=94	=94	=94	=94	=94	=94	=94	=94
8E\]	.	2C/ 2c/	.	(4gg\]	.	2aa\	.
(8FF/	.	.	.	.	.	.	.
4.F\)	.	.	.	[4ff\	.	.	.
.	.	[2C/ [2c/	.	4ff\]	.	2gg\	.
(8GG/	.	.	.	.	.	.	.
[4G\)	.	.	.	[4ee\)	.	.	.
=95	=95	=95	=95	=95	=95	=95	=95
8G\]	.	4C/] 4c/]	.	(4ee\]	.	2ff\	.
(8AA/	.	.	.	.	.	.	.
4.A\)	.	2f\	.	8dd\L	.	.	.
.	.	.	.	[8cc\J)	.	.	.
.	.	.	.	(4cc\]	>	2dd\	>
(8GG/	>	.	.	.	.	.	.
[4G\)	.	4f\	>	[4b\)	.	.	.
=96	=96	=96	=96	=96	=96	=96	=96
8G\]	.	[2e\	p	(4b\]	p	2ee\	p
(8G\	p	.	.	.	.	.	.
4C/)	.	.	.	4cc\)	.	.	.
*clefC4	*clefC4	*	*	*	*	*	*
(4g\	.	(8e\L]	.	(8cc\L	.	2r	.
.	.	8f\J	.	8dd\J)	.	.	.
[4c\)	.	4g\)	.	[4ee\	.	.	.
=97	=97	=97	=97	=97	=97	=97	=97
(8c\L]	.	(4G/	.	(8ee\L]	.	1r	.
8d\J	.	.	.	8ff\J	.	.	.
[4e\)	.	[4C/)	.	4gg\)	.	.	.
(8e\L]	.	(8C/L]	.	(4g/	.	.	.
8f\J	.	8D/J)	.	.	.	.	.
4g\)	.	[4E/	.	[4c/	.	.	.
=98	=98	=98	=98	=98	=98	=98	=98
*clefF4	*clefF4	*	*	*	*	*	*
(8G\L	.	(8E/L]	.	8c/]	.	2r	.
8C\J	.	8F/	.	8d/	.	.	.
4.c\)	.	8G/	.	4e/)	.	.	.
.	.	8C/J)	.	.	.	.	.
.	.	(8c\L	.	(8ee\L	.	2ee\	.
(8B\	.	8d\J)	.	8dd\J)	.	.	.
[4A\)	.	[4e\	.	[4cc\	.	.	.
=99	=99	=99	=99	=99	=99	=99	=99
8A\]	<	4e\]	.	(4cc\]	.	2ccc\	.
(8E\	.	.	.	.	.	.	.
8AA\L	.	(4c\	<	2aa\	<	.	.
8A\J)	.	.	.	.	.	.	.
(8e\L	.	4E/	.	.	.	2bb\	<
8E\J	.	.	.	.	.	.	.
[4e\	.	4g\)	.	[4gg\)	.	.	.
=100	=100	=100	=100	=100	=100	=100	=100
8e\]	.	(4G/ 4e/	.	4gg\]	.	2ccc\	.
8C/	.	.	.	.	.	.	.
4.c\)	.	4ee\)	.	(2gg\	.	.	.
.	.	2cc\	.	.	.	2aa\	.
(8c\	.	.	.	.	.	.	.
[4f\)	.	.	.	4ff\)	.	.	.
=101	=101	=101	=101	=101	=101	=101	=101
8f\]	.	2d\ 2f\	.	4g/	.	2bb\	.
(8e\	.	.	.	.	.	.	.
4.d\)	.	.	.	2g/	.	.	.
.	.	2c\ 2e\	.	.	.	2ccc\	.
(8c\	.	.	.	.	.	.	.
[4G\)	.	.	.	[4g/	.	.	.
=102	=102	=102	=102	=102	=102	=102	=102
8G/L]	f	2.B\ 2.d\	f	4g/]	f	2ddd\	f
(8AA/J	>	.	.	.	.	.	.
4.GG/)	.	.	.	4b\	>	.	.
.	.	.	.	(4gg\	p	2r	>
(8F\	p	.	.	.	.	.	.
[4E\)	.	4G/	>	[4cc\	.	.	.
=103	=103	=103	=103	=103	=103	=103	=103
8E\]	.	(4g\	.	8cc\]	.	1r	.
(8B\	.	.	.	8dd\	.	.	.
4c\)	.	4c\)	.	4.ee\	.	.	.
(4G\	.	4B/ 4d/	.	.	.	.	.
.	.	.	.	8ff\	.	.	.
[4C/	.	[4G/ [4e/	.	4ee\)	.	.	.
=104	=104	=104	=104	=104	=104	=104	=104
*	*	*^	*	*	*	*	*
8C/]	.	(8e/L]	4G\]	.	(4b\	.	2r	.
8D\	.	8f/J)	.	.	.	.	.	.
4E\)	.	4g/	[4G\	.	4cc\)	.	.	.
*	*	*v	*v	*	*	*	*	*
(8A\L	.	(4G/]	.	[2c/	.	2ccc\	.
8AA\J	.	.	.	.	.	.	.
[4A\)	.	[4F/)	.	.	.	.	.
=105	=105	=105	=105	=105	=105	=105	=105
8A\L]	.	(4F/]	.	4c/]	.	2ccc\	.
8a\J	<	.	.	.	.	.	.
4A\	.	4c/	<	(2f/	<	.	.
(8G\L	.	4B/	.	.	.	2ddd\	<
8GG\J	.	.	.	.	.	.	.
[4G\)	.	[4f\)	.	4b\	.	.	.
=106	=106	=106	=106	=106	=106	=106	=106
8G\L]	.	(4f\]	.	4cc\	.	2gg\	.
(8C\J	.	.	.	.	.	.	.
4.c\)	.	4e\	.	[4ee\	.	.	.
.	.	4cc\	.	4ee\]	.	2aa\	.
(8G\	.	.	.	.	.	.	.
4F\)	.	4c\)	.	4ff\)	.	.	.
=107	=107	=107	=107	=107	=107	=107	=107
(8G\L	.	4c\	.	4f/	.	2dd\	.
8GG\J	.	.	.	.	.	.	.
4.G\)	.	4B/	.	[4d/	.	.	.
.	.	4G\ 4g\	>	(4d/]	>	2ee\	>
(8C/	>	.	.	.	.	.	.
[4c\)	.	4G/	.	([4c/)	.	.	.
=108	=108	=108	=108	=108	=108	=108	=108
(8c\L]	p	4F/ 4A/	p	(4c/])	p	2ff\	p
8F\J	.	.	.	.	.	.	.
4f\)	.	4F/	.	4a/)	.	.	.
2r	.	2r	.	(4cc\	.	2r	.
.	.	.	.	[4aa\	.	.	.
=109	=109	=109	=109	=109	=109	=109	=109
2r	.	(4c\	.	8aa\]	.	1r	.
.	.	.	.	8ee\	.	.	.
.	.	4a\)	.	4.ff\	.	.	.
(4AA/	.	(4C/	.	.	.	.	.
.	.	.	.	8ee\	.	.	.
[4F\)	.	[4A/)	.	4dd\	.	.	.
=110	=110	=110	=110	=110	=110	=110	=110
8F\]	.	8A/]	.	4cc\	.	2r	.
(8G\	.	(8e\	.	.	.	.	.
4g\)	.	4d\)	.	4b\)	.	.	.
(8a\L	.	(4A/	.	(4f/	.	2ccc\	.
8A\J)	.	.	.	.	.	.	.
[4a\	.	[4f\)	.	[4cc\)	.	.	.
=111	=111	=111	=111	=111	=111	=111	=111
8a\]	.	(4f\]	.	(4cc\]	.	2ccc\	.
(8A\	<	.	.	.	.	.	.
4a\)	.	4cc\	<	[4ff\	<	.	.
(8g\L	.	4b\	.	4ff\]	.	2ddd\	<
8G\J	.	.	.	.	.	.	.
[4g\)	.	[4f\)	.	4b\	.	.	.
=112	=112	=112	=112	=112	=112	=112	=112
8g\]	.	(4f\]	.	4cc\	.	2gg\	.
(8C/	.	.	.	.	.	.	.
4.c\)	.	4e\)	.	[4ee\	.	.	.
.	.	(4c\	.	4ee\]	.	2aa\	.
(8c\	.	.	.	.	.	.	.
4f\)	.	4a\)	.	[4ff\)	.	.	.
=113	=113	=113	=113	=113	=113	=113	=113
(8d\L	p	(4A/	p	(4ff\]	p	2ff\	p
8D\J	.	.	.	.	.	.	.
4d\)	.	4a\	.	[4dd\	.	.	.
(8G\L	.	4b\	.	4dd\]	.	2gg\	.
8GG\J	.	.	.	.	.	.	.
4G\)	.	4d\)	.	4b\)	.	.	.
=114	=114	=114	=114	=114	=114	=114	=114
(8A\L	.	[2c#\	.	(4a/	.	2ee\	.
8AA/J)	<	.	.	.	.	.	.
[2A\	.	.	.	4e/	<	.	.
.	.	8c#\L]	<	4ee\	.	2aa\	<
.	.	(8c#\J	.	.	.	.	.
8A\L]	.	4e\)	.	4gg\)	.	.	.
8AA\J	.	.	.	.	.	.	.
=115	=115	=115	=115	=115	=115	=115	=115
*k[f#c#]	*k[f#c#]	*k[f#c#]	*k[f#c#]	*k[f#c#]	*k[f#c#]	*k[f#c#]	*k[f#c#]
*M3/8	*M3/8	*M3/8	*M3/8	*M3/8	*M3/8	*M3/8	*M3/8
8DD'/L	f	8D'/L	f	8d'\L 8a'\ 8ff#'\	f	8ddd'\L	f
8D'/J	.	8f#'\J	.	8ff#'\J	.	8d'/	.
8r	.	8r	.	8r	.	8fff#\J	.
=116	=116	=116	=116	=116	=116	=116	=116
8C#\L	p	8e'\L	p	8a'\L	p	16r	.
.	.	.	.	.	.	16eee\	p
8c#'\J	.	8ee'\J	.	8aa'\J	.	32r	.
.	.	.	.	.	.	(32aa\LLL	.
.	.	.	.	.	.	32ddd\	.
.	.	.	.	.	.	32ccc#\JJJ	.
8r	.	8r	.	8r	.	32bb\LLL	.
.	.	.	.	.	.	32aa\	.
.	.	.	.	.	.	32bb\	.
.	.	.	.	.	.	32ccc#\JJJ)	.
=117	=117	=117	=117	=117	=117	=117	=117
8BB'\L	f	8B'\L	f	8d'/L	f	8ddd'\L	f
8B'\J	.	8b'\J	.	8dd'\J 8ff#'\	.	8d'/	.
8r	.	8r	.	8r	.	8ddd\J	.
=118	=118	=118	=118	=118	=118	=118	=118
8AA'\L	p	8c#'\L	p	8f#'\L	p	16r	.
.	.	.	.	.	.	16ccc#\	p
8A'\J	.	8cc#'\J	.	8ff#'\J	.	32r	.
.	.	.	.	.	.	(32ff#\LLL	.
.	.	.	.	.	.	32bb\	.
.	.	.	.	.	.	32aa\JJJ	.
8r	.	8r	.	8r	.	32gg\LLL	.
.	.	.	.	.	.	32ff#\	.
.	.	.	.	.	.	32gg\	.
.	.	.	.	.	.	32aa\JJJ)	.
=119	=119	=119	=119	=119	=119	=119	=119
8GG'/L	f	8G'/L	f	8B'/L	f	8bb'\L	f
8G'/J	.	8g'\J 8b'\	.	8d'/J 8dd'/	.	8G'/	.
8r	.	8r	.	8r	.	8bb\J	.
=120	=120	=120	=120	=120	=120	=120	=120
8F#'\L	p	8A'\L	p	8d'/L	p	16r	.
.	.	.	.	.	.	16aa\	p
8f#'\J	.	8a'\J	.	8dd'/J	.	32r	.
.	.	.	.	.	.	32aa'\LLL	.
.	.	.	.	.	.	32bb'\	.
.	.	.	.	.	.	32ccc#'\JJJ	.
[8BB/	.	[8D/	.	8r	.	32ddd'\LLL	.
.	.	.	.	.	.	32eee'\	.
.	.	.	.	.	.	32fff#'\	.
.	.	.	.	.	.	32ggg'\JJJ	.
=121	=121	=121	=121	=121	=121	=121	=121
(8BB/L]	.	(8D/L]	.	32r	.	(8aaa\L	.
.	.	.	.	32A'/LLL	.	.	.
.	.	.	.	32c#'/	.	.	.
.	.	.	.	32d'/JJJ	<	.	.
8C#/	<	8A/)	<	32e'/LLL	.	8ggg\	<
.	.	.	.	32f#'/	.	.	.
.	.	.	.	32g'/	.	.	.
.	.	.	.	32a'/JJJ	.	.	.
8D/J)	.	8F#/J 8A/	.	32a'/LLL	.	8fff#\J)	.
.	.	.	.	32b'/	.	.	.
.	.	.	.	32cc#'/	.	.	.
.	.	.	.	32dd'/JJJ	.	.	.
=122	=122	=122	=122	=122	=122	=122	=122
8E/L	.	8A/L	.	32cc#'\LLL	.	(16eee\LL	.
.	.	.	.	32ee'\	.	.	.
.	.	.	.	32dd'\	.	16ee\J	.
.	.	.	.	32cc#'\JJJ	.	.	.
8GG#/	.	8E/ 8B/	>	32dd'\LLL	>	8.bb\	>
.	.	.	.	32b'\	.	.	.
.	.	.	.	32ee'\	.	.	.
.	.	.	.	32dd'\JJJ	.	.	.
8AA/J	>	16E/L	.	32cc#'\LLL	.	.	.
.	.	.	.	32ee'\	.	.	.
.	.	16E/JJ 16Gn/	.	32aa'\	.	16aa\Jk)	.
.	.	.	.	32ccc#'\JJJ	.	.	.
=123	=123	=123	=123	=123	=123	=123	=123
8DD'/L	f	8F#'/L	f	8ddd'\L	f	32aa'/LLL	f
.	.	.	.	.	.	32d'/	.
.	.	.	.	.	.	32ff#'/	.
.	.	.	.	.	.	32gg'/JJJ	.
8D'\	.	8f#'\J	.	8d'/	.	32aa'\LLL	.
.	.	.	.	.	.	32bb'\	.
.	.	.	.	.	.	32ccc#'\	.
.	.	.	.	.	.	32ddd'\JJJ	.
8d'\J	.	8r	.	8ff#\J	.	32eee'\LLL	.
.	.	.	.	.	.	32fff#'\	.
.	.	.	.	.	.	32ggg'\	.
.	.	.	.	.	.	32aaa'\JJJ	.
=124	=124	=124	=124	=124	=124	=124	=124
8r	.	8C#'/L	p	16r	.	16aaa\	p
.	.	.	.	16ee\	p	8.a/	.
8CC#'/L	p	8c#'\J 8e'\	.	32r	.	.	.
.	.	.	.	(32a\LLL	.	.	.
.	.	.	.	32dd\	.	.	.
.	.	.	.	32cc#\JJJ	.	.	.
8C#'/J	.	8r	.	32b\LLL	.	8aa\	.
.	.	.	.	32a\	.	.	.
.	.	.	.	32bb\	.	.	.
.	.	.	.	32ccc#\JJJ)	.	.	.
=125	=125	=125	=125	=125	=125	=125	=125
8r	.	8B'\L	f	8ddd'\L	f	32dd'/LLL	f
.	.	.	.	.	.	32d'/	.
.	.	.	.	.	.	32dd'/	.
.	.	.	.	.	.	32ee/JJJ	.
8BB'\L	f	8f#'\J 8dd'\	.	8d'\	.	32ff#'\LLL	.
.	.	.	.	.	.	32bb'\	.
.	.	.	.	.	.	32ccc#'\	.
.	.	.	.	.	.	32ddd'\JJJ	.
8B'\J	.	8r	.	8ddd\J	.	32eee'\LLL	.
.	.	.	.	.	.	32fff#'\	.
.	.	.	.	.	.	32fff#'\	.
.	.	.	.	.	.	32fff#'\JJJ	.
=126	=126	=126	=126	=126	=126	=126	=126
8r	.	8A'\L	p	16r	.	16fff#\	p
.	.	.	.	16ccc#\	p	8.f#/	.
8AA'\L	p	8a'\J 8cc#'\	.	32r	.	.	.
.	.	.	.	(32ff#\LLL	.	.	.
.	.	.	.	32bb\	.	.	.
.	.	.	.	32aa\JJJ	.	.	.
8A'\J	.	8r	.	32gg\LLL	.	8ff#\	.
.	.	.	.	32ff#\	.	.	.
.	.	.	.	32gg\	.	.	.
.	.	.	.	32aa\JJJ)	.	.	.
=127	=127	=127	=127	=127	=127	=127	=127
8r	.	8G'\L	f	32d'/LLL	f	8bb'\L	f
.	.	.	.	32dd'/	.	.	.
.	.	.	.	32ee'/	.	.	.
.	.	.	.	32ff#'/JJJ	.	.	.
8GG'/L	f	8d'\J 8b'\	.	32gg'\LLL	.	8G'/	.
.	.	.	.	32aa'\	.	.	.
.	.	.	.	32bb'\	.	.	.
.	.	.	.	32ccc#'\JJJ	.	.	.
8G'/J	.	8r	.	32ddd'\LLL	.	8bb\J	.
.	.	.	.	32ddd'\	.	.	.
.	.	.	.	32ddd'\	.	.	.
.	.	.	.	32ddd'\JJJ	.	.	.
=128	=128	=128	=128	=128	=128	=128	=128
8r	.	8F#'\L	p	8ddd'\L	p	16r	.
.	.	.	.	.	.	(48bb\LLL	p
.	.	.	.	.	.	48aa\	.
.	.	.	.	.	.	48gg#\JJJ)	.
8F#\	p	8f#'\J 8a'\	.	8dd'\J	.	32r	.
.	.	.	.	.	.	32aa\LLL	.
.	.	.	.	.	.	(48aa\	.
.	.	.	.	.	.	48bb\	.
.	.	.	.	.	.	48ccc#\JJJ)	.
16BB\LL	.	16D/LL	.	[8g/	.	(48ccc#\LLL	.
.	.	.	.	.	.	48ddd\	.
.	.	.	.	.	.	48eee\JJJ)	.
[16B\JJ	.	[16d/JJ	.	.	.	(48eee\LLL	.
.	.	.	.	.	.	48fff#\	.
.	.	.	.	.	.	48gggn\JJJ)	.
=129	=129	=129	=129	=129	=129	=129	=129
16B\LK]	.	16d\LK]	.	(8g/]	.	(16aaa\LL	.
8B\	<	8d\	<	.	.	16aa\	<
.	.	.	.	[4a/)	<	16gg\	.
8c#\	.	8e\	.	.	.	16ggg\	.
.	.	.	.	.	.	16fff#\	.
16d\Jk	.	16f#\Jk	.	.	.	16ff#\JJ	.
=130	=130	=130	=130	=130	=130	=130	=130
(8e\L	.	16r	.	(16a\LL]	.	16eee\LL	.
.	.	(16a\	.	16cc#\JJ)	.	16ee\J	.
8G#\	>	8.e\L	.	(8dd\L	>	[8bb\J)	>
16A\L	.	.	.	16cc#\L	.	(32bb\LLL]	.
.	.	.	.	.	.	32ee\	.
16B\JJ)	.	16d\Jk)	>	16dd\JJ)	.	32aa\	.
.	.	.	.	.	.	32gg#\JJJ)	.
=131	=131	=131	=131	=131	=131	=131	=131
16c#'\LL	p	16e'/LL	p	(8ee/L	p	8ggn\	p
16C#'\JJ	.	16E'/JJ	.	.	.	.	.
16r	.	16r	.	8a/	.	8r	.
16B\	.	16d\	.	.	.	.	.
16r	.	16r	.	8g/J)	.	8r	.
16c#\	.	16e\	.	.	.	.	.
=132	=132	=132	=132	=132	=132	=132	=132
16r	.	16r	.	4f#/	.	(8ddd\L	.
16d\	.	16f#\	.	.	.	.	.
16r	.	16r	.	.	.	8gg\	.
16E\	.	16c#\	.	.	.	.	.
16r	.	16r	.	8r	.	8ff#\J)	.
16D\	.	16d\	.	.	.	.	.
=133	=133	=133	=133	=133	=133	=133	=133
16A\LL	.	16c#/LL	.	(8ee\L	.	8ee\	.
16AA\JJ	.	16C#/JJ	.	.	.	.	.
16r	.	16r	.	16a'\L)	.	8r	.
16B\	.	16d\	.	16a'\JJ	.	.	.
16r	.	16r	.	8g/	.	8r	.
16c#\	.	16e\	.	.	.	.	.
=134	=134	=134	=134	=134	=134	=134	=134
16r	.	16r	.	(16f#\LK	.	(8ddd\L	.
16d\	.	16f#\	.	8a\)	.	.	.
16r	.	16r	.	.	.	16gg'\L)	.
16e\	.	16cc#\	.	[16aa\Jk	.	16gg'\JJ	.
16r	.	16r	.	(32aa\LLL]	.	(16ff#\LL	.
.	.	.	.	32a\	.	.	.
16d\	.	16dd\	.	32g\	.	32gg\L	.
.	.	.	.	32f#\JJJ)	.	32aa\JJJ)	.
=135	=135	=135	=135	=135	=135	=135	=135
16r	.	16r	.	32G/LLL 32g/	pp	(32aa#\LLL	pp
.	.	.	.	32G/JJJ 32g/	.	32b\JJJ)	.
32Gn\LLL	pp	32B/LLL	pp	16r	.	32r	.
32G\JJJ	.	32B/JJJ	.	.	.	32bb\	.
16r	.	16r	.	32G/LLL 32b/	.	(32ff#\LLL	.
.	.	.	.	32G/JJJ 32b/	.	32g\JJJ)	.
32G\LLL	.	32B\LLL 32d\	.	16r	.	32r	.
32G\JJJ	.	32B\JJJ 32d\	.	.	.	32gg\	.
16r	.	16r	.	32G/LLL 32b/	.	(32dd#/LLL	.
.	.	.	.	32G/JJJ 32b/	.	32e/JJJ)	.
32G\LLL	.	32B\LLL 32g\	.	16r	.	32r	.
32G\JJJ	.	32B\JJJ 32g\	.	.	.	32ee\	.
=136	=136	=136	=136	=136	=136	=136	=136
16r	.	16r	.	32g/LLL 32a/	.	(32ddn/LLL	.
.	.	.	.	32g/JJJ 32a/	.	32e/JJJ)	.
32A\LLL 32g\	.	32c#\LLL 32e\	.	16r	.	32r	.
32A\JJJ 32g\	.	32c#\JJJ 32e\	.	.	.	32cc#\	.
16r	.	16r	.	32g/LLL 32a/	.	(32dd/LLL	.
.	.	.	.	32g/JJJ 32a/	.	32e/JJJ)	.
32A\LLL 32g\	.	32c#\LLL 32e\	.	16r	.	32r	.
32A\JJJ 32g\	.	32c#\JJJ 32e\	.	.	.	32ee\	.
16r	.	16r	.	32g/LLL 32a/	.	(32ff#\LLL	.
.	.	.	.	32g/JJJ 32a/	.	32g\JJJ)	.
32A\LLL 32g\	.	32c#\LLL 32e\	.	16r	.	32r	.
32A\JJJ 32g\	.	32c#\JJJ 32e\	.	.	.	32gg\	.
=137	=137	=137	=137	=137	=137	=137	=137
16r	.	16r	<	32e/LLL 32ee/	<	(32gg#\LLL	<
.	.	.	.	32e/JJJ 32ee/	.	32ee\JJJ)	.
32A\LLL 32g\	<	32C#/LLL 32G/	.	16r	.	32r	.
32A\JJJ 32g\	.	32C#/JJJ 32G/	.	.	.	32aa\	.
16r	.	16r	.	32e/LLL 32ee/	.	(32aa#\LLL	.
.	.	.	.	32e/JJJ 32ee/	.	32ee\JJJ)	.
32A\LLL 32g\	.	32C#/LLL 32G/	.	16r	.	32r	.
32A\JJJ 32g\	.	32C#/JJJ 32G/	.	.	.	32bb\	.
16r	.	16r	.	32e/LLL 32ee/	.	(32aa#\LLL	.
.	.	.	.	32e/JJJ 32ee/	.	32ee\JJJ)	.
32A\LLL 32g\	.	32C#/LLL 32G/	.	16r	.	32r	.
32A\JJJ 32g\	.	32C#/JJJ 32G/	.	.	.	32aan\	.
=138	=138	=138	=138	=138	=138	=138	=138
16r	.	16r	.	32e/LLL 32ee/	.	(32aa#\LLL	.
.	.	.	.	32e/JJJ 32ee/	.	32ee\JJJ)	.
32A\LLL 32g\	.	32C#/LLL 32G/	.	16r	.	32r	.
32A\JJJ 32g\	.	32C#/JJJ 32G/	.	.	.	32bb\	.
16r	.	16r	.	32e/LLL 32ee/	.	(32aa#\LLL	.
.	.	.	.	32e/JJJ 32ee/	.	32ee\JJJ)	.
32A\LLL 32g\	.	32C#/LLL 32G/	.	16r	.	32r	.
32A\JJJ 32g\	.	32C#/JJJ 32G/	.	.	.	32aan\	.
16r	.	32C#/LLL 32G/	.	32e/LLL 32ee/	.	(32aa#\LLL	.
.	.	32C#/ 32G/	.	32e/ 32ee/	.	32ee\JJJ)	.
32GG/LLL	.	32E/ 32c#/	.	32c#/ 32e/	.	32r	.
32GG/JJJ	.	32E/JJJ 32c#/	.	32c#/JJJ 32e/	.	32bb\	.
=139	=139	=139	=139	=139	=139	=139	=139
(8GG/L	.	(8E/L 8c#/	.	(8b/L	.	(8bb\L	.
8GG#/	.	8D/) 8B/	.	8d/) 8f#/	.	8ddd\	.
[8AA/J)	.	[8D/J [8d/	.	[8A/J [8f#/	.	8fff#\J	.
=140	=140	=140	=140	=140	=140	=140	=140
(8AA/L]	.	(8D/L] 8d/]	.	(8A/] 8f#/]	.	16aaa\LL	.
.	.	.	.	.	.	16aa\J)	.
8CC#/	.	[8A/J)	>	[8g/)	.	([8eee\J	.
8DD/J)	>	(16A/LL]	.	(32g/LLL]	>	32eee\LLL]	>
.	.	.	.	32f#/	.	32ddd\	.
.	.	32c#/L	.	32ee/	.	32ggg\	.
.	.	32d/JJJ)	.	32dd/JJJ)	.	32fff#\JJJ)	.
=141	=141	=141	=141	=141	=141	=141	=141
16AA\LL	p	(8e\	p	16cc#'\LL	p	32eee'\LLL	p
.	.	.	.	.	.	(32eee\	.
16A\	.	.	.	16ccc#'\	.	32fff#\	.
.	.	.	.	.	.	32eee\JJJ)	.
16B\	.	4a\)	.	16ddd'\	.	32aa'\LLL	.
.	.	.	.	.	.	(32aa\	.
16BB\	.	.	.	16dd'\	.	32bb\	.
.	.	.	.	.	.	32aa\JJJ)	.
16C#\	.	.	.	16ee'\	.	8gg\	.
16c#\JJ	.	.	.	16eee'\JJ	.	.	.
=142	=142	=142	=142	=142	=142	=142	=142
16D\LL	.	16F#/LL	.	32ddd'\LLL	.	8ff#\	.
.	.	.	.	(32ddd\	.	.	.
16d\	.	16f#/	.	32eee\	.	.	.
.	.	.	.	32ddd\JJJ)	.	.	.
16e\	.	16g/	.	32gg'\LLL	.	8r	.
.	.	.	.	(32gg\	.	.	.
16E\	.	16c#/	.	32aa\	.	.	.
.	.	.	.	32gg\JJJ)	.	.	.
16D\	.	16d/	.	8ff#\	.	8r	.
16d\JJ	.	16F#/JJ	.	.	.	.	.
=143	=143	=143	=143	=143	=143	=143	=143
16AA\LL	.	16c#\LL	.	16ee'\LL	.	(48ddd#\LLL	.
.	.	.	.	.	.	48eee\	.
.	.	.	.	.	.	48fff#\	.
16A\	.	16cc#\	.	16ccc#'\	.	48eee\	.
.	.	.	.	.	.	48ddd#\	.
.	.	.	.	.	.	48eee\JJJ)	.
16B\	.	16dd\	.	16ddd'\	.	(48gg#\LLL	.
.	.	.	.	.	.	48aa\	.
.	.	.	.	.	.	48bb\	.
16BB\	.	16d\	.	16dd'\	.	48aa\	.
.	.	.	.	.	.	48gg#\	.
.	.	.	.	.	.	48aa\JJJ)	.
16C#\	.	16e\	.	16ee'\	.	8ggn\	.
16c#\JJ	.	16ee\JJ	.	16eee'\JJ	.	.	.
=144	=144	=144	=144	=144	=144	=144	=144
16D\LL	.	16F#/LL	.	(48ccc#\LLL	.	8ff#\	.
.	.	.	.	48ddd\	.	.	.
.	.	.	.	48eee\	.	.	.
16d\	.	16f#/	.	48ddd\	.	.	.
.	.	.	.	48ccc#\	.	.	.
.	.	.	.	48ddd\JJJ)	.	.	.
16e\	.	16g/	.	(48ff#\LLL	.	8r	.
.	.	.	.	48gg\	.	.	.
.	.	.	.	48aa\	.	.	.
16E\	.	16c#/	.	48gg\	.	.	.
.	.	.	.	48ff#\	.	.	.
.	.	.	.	48gg\JJJ)	.	.	.
16d\	.	16f#/	.	(48ff#\LLL	.	8r	.
.	.	.	.	48gg\	.	.	.
.	.	.	.	48ee\	.	.	.
16D\JJ	.	16F#/JJ	.	48ff#\	.	.	.
.	.	.	.	48gg\	.	.	.
.	.	.	.	48aa\JJJ)	.	.	.
=145	=145	=145	=145	=145	=145	=145	=145
32G/LKK	pp	32B/LLL	pp	(32aa#\LLL	pp	8r	.
32r	.	32B/ 32d/	.	32b\JJJ)	.	.	.
32r	.	32B/JJJ 32d/	.	32aa#'\LLL	.	.	.
32GG/Jkk	.	32r	.	(64ccc#\L	.	.	.
.	.	.	.	64bb\JJJJ)	.	.	.
32GG/LKK	.	32r	.	32r	.	(32ff#\LLL	pp
32r	.	32B\LLL 32d\	.	32g/LLL 32b/	.	32g\JJJ)	.
32r	.	32B\JJJ 32d\	.	32g/JJJ 32b/	.	32ff#'\LLL	.
32GG/Jkk	.	32r	.	32r	.	(64aa\L	.
.	.	.	.	.	.	64gg\JJJJ)	.
32GG/LKK	.	32r	.	32r	.	(32dd#/LLL	.
32r	.	32B\LLL 32e\	.	32g/LLL 32b/	.	32e/JJJ)	.
32r	.	32B\JJJ 32e\	.	32g/JJJ 32b/	.	32dd#'\LLL	.
32GG/Jkk	.	32r	.	32r	.	(64ff#\L	.
.	.	.	.	.	.	64ee\JJJJ)	.
=146	=146	=146	=146	=146	=146	=146	=146
32AA/LKK	.	32r	.	32r	.	(32ddn/LLL	.
32r	.	32c#\LLL 32e\	.	32g/LLL 32a/	.	32e/JJJ)	.
32r	.	32c#\JJJ 32e\	.	32g/JJJ 32a/	.	32b'\LLL	.
32AA/Jkk	.	32r	.	32r	.	(64dd\L	.
.	.	.	.	.	.	64cc#\JJJJ)	.
32AA/LKK	.	32r	.	32r	.	(32dd/LLL	.
32r	.	32c#\LLL 32e\	.	32g/LLL 32a/	.	32e/JJJ)	.
32r	.	32c#\JJJ 32e\	.	32g/JJJ 32a/	.	32dd#'\LLL	.
32AA/Jkk	.	32r	.	32r	.	(64ff#\L	.
.	.	.	.	.	.	64ee\JJJJ)	.
32AA/LKK	.	32r	.	32r	.	(32ff#\LLL	.
32r	.	32c#\LLL 32e\	.	32g/LLL 32a/	.	32g\JJJ)	.
32r	.	32c#\JJJ 32e\	.	32g/JJJ 32a/	.	32ff#'\LLL	.
32AA/Jkk	.	32r	.	32r	.	(64aa\L	.
.	.	.	.	.	.	64gg\JJJJ)	.
=147	=147	=147	=147	=147	=147	=147	=147
32CC#/LKK	<	32r	<	32r	<	(32gg#\LLL	<
32r	.	32G/LLL 32e/	.	32g\LLL 32ee\	.	32ee\JJJ)	.
32r	.	32G/JJJ 32e/	.	32g\JJJ 32ee\	.	32gg#'\LLL	.
32CC#/Jkk	.	32r	.	32r	.	(64bb\L	.
.	.	.	.	.	.	64aa\JJJJ)	.
32CC#/LKK	.	32r	.	32r	.	(32aa#\LLL	.
32r	.	32G/LLL 32e/	.	32g\LLL 32ee\	.	32ee\)	.
32r	.	32G/JJJ 32e/	.	32g\JJJ 32ee\	.	32aa#'\	.
32CC#/Jkk	.	32r	.	32r	.	(64ccc#\L	.
.	.	.	.	.	.	64bb\JJJJ)	.
32CC#/LKK	.	32r	.	32r	.	(32aa#\LLL	.
32r	.	32G/LLL 32e/	.	32g\LLL 32ee\	.	32ee\	.
32r	.	32G/JJJ 32e/	.	32g\JJJ 32ee\	.	32bb\	.
32CC#/Jkk	.	32r	.	32r	.	32aan\JJJ)	.
=148	=148	=148	=148	=148	=148	=148	=148
32CC#/	.	32G/LKK 32e/	.	32g\LLL 32ee\	.	(32aa#\LLL	.
*clefC4	*clefC4	*	*	*	*	*	*
32g\LLL	.	32r	.	32cc#\ 32ee\	.	32ee\JJJ)	.
32g\JJJ	.	32r	.	32cc#\JJJ 32ee\	.	32aa#'\LLL	.
32r	.	32C#/Jkk 32G/	.	32r	.	(64ccc#\L	.
.	.	.	.	.	.	64bb\JJJJ)	.
32r	.	32C#/LKK 32G/	.	32r	.	(32aa#\LLL	.
32g\LLL	.	32r	.	32cc#\LLL 32ee\	.	32ee\JJJ)	.
32g\JJJ	.	32r	.	32cc#\JJJ 32ee\	.	32gg#'\LLL	.
32r	.	32C#/Jkk 32G/	.	32r	.	(64bb\L	.
.	.	.	.	.	.	64aan\JJJJ)	.
32r	.	32C#/LLL 32G/	.	32r	.	(32aa#\LLL	.
32g\	.	32C#/ 32G/	.	32cc#\LLL 32ee\	.	32ee\JJJ)	.
*clefF4	*clefF4	*	*	*	*	*	*
32GG/LLL	.	32C#/ 32G/	.	32cc#\ 32ee\	.	32aa#'\LLL	.
32GG/JJJ	.	32C#/JJJ 32G/	.	32cc#\JJJ 32ee\	.	(64ccc#\L	.
.	.	.	.	.	.	64bb\JJJJ)	.
=149	=149	=149	=149	=149	=149	=149	=149
(16GG/LL	f	(16cc#\LL	f	(16ee\LL	f	(32bb\LLL	f
.	.	.	.	.	.	32ee\	.
16GG#/JJ)	.	16f#\JJ)	.	16dd\JJ)	.	32ccc#\	.
.	.	.	.	.	.	32ddd\JJJ)	.
(16GG#/LL	.	(16f#\LL	.	(16dd/LL	.	(32ddd\LLL	.
.	.	.	.	.	.	32ff#\	.
16AA/JJ)	.	16d\JJ)	.	16f#/JJ)	.	32eee\	.
.	.	.	.	.	.	32fff#\JJJ)	.
[8AA/	.	(16d/LL	.	(16f#/LL	.	(32fff#\LLL	.
.	.	.	.	.	.	32aan\	.
.	.	16F#/JJ)	.	16d/JJ)	.	32fff#\	.
.	.	.	.	.	.	32aaa\JJJ)	.
=150	=150	=150	=150	=150	=150	=150	=150
(8AA/L]	.	(8F#/L	.	(16d/LL	.	(32aaa\LLL	.
.	.	.	.	.	.	32aa\	.
.	.	.	.	16A/JJ)	.	32fff#\	.
.	.	.	.	.	.	32eee\JJJ)	.
8CC#/J	.	8G/J	.	[8A/	.	[8eee\	.
16DD/LL	>	32F#/LLL)	.	32A/LLL]	>	(32eee\LLL]	>
.	.	(32F#/	>	(32a/	.	32ddd\	.
16D/JJ)	.	32E/	.	32g/	.	32ccc#\	.
.	.	32D/JJJ)	.	32f#/JJJ)	.	64eee\L	.
.	.	.	.	.	.	64ddd\JJJJ)	.
=151	=151	=151	=151	=151	=151	=151	=151
(16Cn/LL	p	[4.D/	p	(8f#/	p	(4ddd\	p
16AA#/	.	.	.	.	.	.	.
16BB/	.	.	.	[4d/)	.	.	.
16C/	.	.	.	.	.	.	.
16D/	.	.	.	.	.	8ff#\	.
16C/JJ)	.	.	.	.	.	.	.
=152	=152	=152	=152	=152	=152	=152	=152
(16Cn/LL	.	(8D/]	.	8d/]	.	4.gg\)	.
16AA#/	.	.	.	.	.	.	.
16BB/	.	4G/)	.	(8dd\L	.	.	.
16C#/	.	.	.	.	.	.	.
16D/	.	.	.	16b\Jk)	.	.	.
16BB/JJ)	.	.	.	16r	.	.	.
=153	=153	=153	=153	=153	=153	=153	=153
(16BB/LL	.	(8D/	.	8r	.	4ff#\	.
16GG#/	.	.	.	.	.	.	.
16AAn/	.	4F#/)	.	(8dd/L	.	.	.
16C#/	.	.	.	.	.	.	.
16D/	.	.	.	8f#/J)	.	(16ff#\LL	.
16AA/JJ)	.	.	.	.	.	32gg\L	.
.	.	.	.	.	.	32aa\JJJ)	.
=154	=154	=154	=154	=154	=154	=154	=154
(16AA/LL	.	(8D/	.	8r	.	8bb\L	.
16FF#/	.	.	.	.	.	.	.
16GGn/	.	4B/)	.	(8dd\L	.	8bb\J	.
16C#/	.	.	.	.	.	.	.
16D/	.	.	.	8b\J)	.	(16bb\LL	.
16GG/JJ)	.	.	.	.	.	32ccc#\L	.
.	.	.	.	.	.	32ddd\JJJ)	.
=155	=155	=155	=155	=155	=155	=155	=155
(16GG/LL	<	16r	.	16r	.	[8ddd\	<
16EE#/	.	(16c#\LL	<	(16cc#\LL	<	.	.
16FF#/	.	16d\	.	16dd\	.	(16ddd\LL]	.
16EEn/	.	16c#\	.	16cc#\	.	16aan\)	.
16DD/	>	16d\	>	16dd\	>	(16aa\	>
16D/JJ)	.	16cn\JJ)	.	16ccn\JJ)	.	16ff#\JJ)	.
=156	=156	=156	=156	=156	=156	=156	=156
(16DD/LL	.	(16cn/LL	.	(16ccn\LL	.	(16ff#\LL	.
16D/	.	16A#/	.	16a#\	.	[16gg\JJ)	.
16DD/	.	16B/	.	16b\	.	16gg\LL]	.
16D/	.	16c/	.	16cc\	.	(32aa\L	.
.	.	.	.	.	.	32gg\JJJ	.
16DD/	.	16d/	.	16dd\	.	32ff#\LLL	.
.	.	.	.	.	.	32gg\	.
16D/JJ)	.	16B/JJ)	.	16b\JJ)	.	32bb\	.
.	.	.	.	.	.	32gg\JJJ)	.
=157	=157	=157	=157	=157	=157	=157	=157
(16DD/LL	.	(16B/LL	.	(16b\LL	.	(32gg\LLL	.
.	.	.	.	.	.	32ff#\	.
16D/	.	16G#/	.	16g#\	.	32ee#\	.
.	.	.	.	.	.	32ff#\JJJ	.
16DD/	.	16An/	.	16an\	.	32ee#\LLL	.
.	.	.	.	.	.	32ff#\	.
16D/	.	32c#/L	.	32cc#\L	.	32gg\	.
.	.	32d/J)	.	32dd\J)	.	32ff#\JJJ	.
16DD/	.	(16d/	.	(16dd\	.	32ee#\LLL	.
.	.	.	.	.	.	32ff#\	.
16D/JJ)	.	[16A/JJ)	.	[16a\JJ)	.	32gg\	.
.	.	.	.	.	.	32aa\JJJ)	.
=158	=158	=158	=158	=158	=158	=158	=158
(16DD/LL	.	(16A/LL]	.	(16a/LL]	.	(32aa#\LLL	.
.	.	.	.	.	.	32bb\	.
16D/	.	16F#/JJ	.	16f#/JJ	.	32ccc#\	.
.	.	.	.	.	.	32bb\JJJ)	.
16DD/	.	16Gn/LL	.	16gn/LL	.	(32bb\LLL	.
.	.	.	.	.	.	32b\	.
16D/	.	32c#/L	.	32cc#/L	.	32bb\	.
.	.	32d/JJJ)	.	32dd/JJJ)	.	32aa#\JJJ)	.
16DD/	.	(16d/LL	.	(16dd/LL	.	(32aa#\LLL	.
.	.	.	.	.	.	32bb\	.
16D/JJ)	.	16G/JJ)	.	16g/JJ)	.	32ccc#\	.
.	.	.	.	.	.	32ddd\JJJ)	.
=159	=159	=159	=159	=159	=159	=159	=159
(16DD/LL	<	(16G/LL	<	(16g/LL	<	(32ddd\LLL	<
.	.	.	.	.	.	32an\	.
16D/	.	32E#/L	.	32e#/L	.	32bb\	.
.	.	32F#/JJJ	.	32f#/JJJ	.	32aan\JJJ)	.
16FF#/	.	16d/LL	.	16dd/LL	.	(32aa\LLL	.
.	.	.	.	.	.	32a\	.
16D/	.	16A#/	.	16a#/	.	32aa#\)	.
.	.	.	.	.	.	32aa#\JJJ	.
16GG#/	.	16d/	.	16dd/	.	(32aa#\LLL	.
.	.	.	.	.	.	32b\	.
16D/JJ)	.	16B/JJ)	.	16b/JJ)	.	32bb\)	.
.	.	.	.	.	.	32bb\JJJ	.
=160	=160	=160	=160	=160	=160	=160	=160
(16AA/LL	.	(16d/LL	.	(16dd/LL	.	32bb\LLL	.
.	.	.	.	.	.	(32d\	.
16D/	.	16F#/	.	16f#/JJ)	.	32een\	.
.	.	.	.	.	.	32dd\JJJ	.
16AA/	.	16An/	.	(16f#/LL	.	32cc#\LLL	.
.	.	.	.	.	.	32dd\	.
16D/	.	16F#/	.	16An/	.	32ff#\	.
.	.	.	.	.	.	32ee\JJJ	.
16AA/	>	16A/	>	16g/	>	32dd#\LLL	>
.	.	.	.	.	.	32ee\	.
16E/JJ)	.	16G/JJ)	.	16A/JJ)	.	32gg\	.
.	.	.	.	.	.	32ff#\JJJ)	.
=161	=161	=161	=161	=161	=161	=161	=161
(8AA/L	p	32F#/LLL	p	32A/LLL	p	(32ee\LLL	p
.	.	(32d/	.	(32dd\	.	32ff#\	.
.	.	32f#/	.	32ff#\	.	32aan\	.
.	.	32e/JJJ	.	32ee\JJJ	.	32gg\JJJ)	.
8DD/	.	32d/LLL	.	32dd/LLL	.	(8ff#\L	.
.	.	32c#/	<	32cc#/	<	.	.
.	.	32B/	.	32b/	.	.	.
.	.	32A/JJJ	.	32a/JJJ	.	.	.
8EE/J	<	32G/LLL	.	32g/LLL	.	8gg\J	<
.	.	32e/	.	32ee/	.	.	.
.	.	32c#/	.	32cc#/	.	.	.
.	.	32G/JJJ	.	32g/JJJ	.	.	.
=162	=162	=162	=162	=162	=162	=162	=162
8FF#/L	.	32F#/LLL	.	32f#/LLL	.	8aa\L	.
.	.	32d/	.	32dd/	.	.	.
.	.	32A/	.	32a/	.	.	.
.	.	32F#/JJJ	.	32f#/JJJ	.	.	.
8GG#/	.	32Fn/LLL	.	32fn/LLL	.	8bb\	.
.	.	32d/	.	32dd/	.	.	.
.	.	32B/	.	32b/	.	.	.
.	.	32F/JJJ	.	32f/JJJ	.	.	.
8AA/J)	>	32E/LLL	.	32e/LLL	>	8ccc#\J)	>
.	.	32c#/	>	32cc#/	.	.	.
.	.	32G/	.	32g/	.	.	.
.	.	32E/JJJ)	.	32e/JJJ)	.	.	.
=163	=163	=163	=163	=163	=163	=163	=163
32DD/LLL	p	8F#/	p	(8f#\L	p	(32ddd\LLL	p
(32F#/	.	.	.	.	.	32dd\JJJ)	.
32A/	.	.	.	.	.	32r	.
32Gn/JJJ	.	.	.	.	.	32ddd\	.
32F#/LLL	<	(16f#/LL	<	8ff#\	<	(32ddd\LLL	<
32E/	.	.	.	.	.	32dd\JJJ)	.
32D/	.	16F#/JJ)	.	.	.	32r	.
32Cn/JJJ	.	.	.	.	.	32ddd\	.
32BB/LLL	.	(16G/LL	.	8gg\J	.	(32ddd\LLL	.
32G/	.	.	.	.	.	32dd\JJJ)	.
32D/	.	16g/JJ)	.	.	.	32r	.
32BB/JJJ	.	.	.	.	.	32ddd\	.
=164	=164	=164	=164	=164	=164	=164	=164
32AA/LLL	.	(16a\LL	.	8aa\L	.	(32ddd\LLL	.
32F#/	.	.	.	.	.	32dd\JJJ)	.
32D/	.	16A\JJ)	.	.	.	32r	.
32AA/JJJ	.	.	.	.	.	32ddd\	.
32GG#/LLL	.	(16B\LL	.	8bb\	.	(32ddd\LLL	.
32Fn/	.	.	.	.	.	32dd\JJJ)	.
32D/	.	16b\JJ)	.	.	.	32r	.
32GG#/JJJ	.	.	.	.	.	32ddd\	.
32GGn/LLL	>	(16c#\LL	>	[8ccc#\J)	>	(32eee\LLL	.
32AA/	.	.	.	.	.	32ee\JJJ)	>
32GG/	.	16cc#\JJ)	.	.	.	32r	.
32EE/JJJ)	.	.	.	.	.	32eee\	.
=165	=165	=165	=165	=165	=165	=165	=165
(32DD/LLL	p	(16cc#\LL	p	(16ccc#\LL]	p	(32eee\LLL	p
32AA/	.	.	.	.	.	32ee\JJJ)	.
32FF#/	.	16dd\JJ)	.	16ddd\JJ)	.	32r	.
32DD/JJJ	.	.	.	.	.	32fff#\	.
8DD'/L)	p	8D'/L 8d'/	p	8dd'\L	p	8ddd'\L	p
(8DD'/J	.	(8D'/J 8d'/	.	(8dd'\J	.	(8ddd'\J	.
=166	=166	=166	=166	=166	=166	=166	=166
8DD'/)	.	8D'/) 8d'/	.	8dd'\)	.	8ddd'\)	.
8r	.	8r	.	8r	.	8r	.
(8E'\	pp	(8G'/	pp	(8ccn'\	pp	(8cccn'\	pp
=167	=167	=167	=167	=167	=167	=167	=167
8E'\)	.	8G'/)	.	8ccn'\)	.	8cccn'\)	.
8r	.	8r	.	8r	.	8r	.
8Fn\	.	8A/	.	8cc\	.	8ccc\	.
=168	=168	=168	=168	=168	=168	=168	=168
*k[]	*k[]	*k[]	*k[]	*k[]	*k[]	*k[]	*k[]
*met(C)	*met(C)	*met(C)	*met(C)	*met(C)	*met(C)	*met(C)	*met(C)
*M4/4	*M4/4	*M4/4	*M4/4	*M4/4	*M4/4	*M4/4	*M4/4
4r	.	4r	.	4r	.	4r	.
4.F\	<	4.A/	<	4.cc\	<	4.ccc\	.
8r	>	8r	>	(8c/	>	8r	.
4r	.	4r	.	[4a/)	.	4r	.
=169	=169	=169	=169	=169	=169	=169	=169
2r	.	8r	.	(16a\LL]	.	1r	.
.	.	.	.	16g\J)	.	.	.
.	.	(8c\	.	[8cc\J	.	.	.
.	.	[4a\)	.	(16cc\LL]	.	.	.
.	.	.	.	16dd\J)	.	.	.
.	.	.	.	[8cc\J	.	.	.
8r	.	(16a\LL]	.	(8cc/L]	.	.	.
.	.	16g\J)	.	.	.	.	.
(8C\	.	[8cc\J	.	8e/J	.	.	.
[4A\)	.	(16cc\LL]	.	4f/)	.	.	.
.	.	16dd\J)	.	.	.	.	.
.	.	[8cc\J	.	.	.	.	.
=170	=170	=170	=170	=170	=170	=170	=170
(16A\LL]	.	(8cc\L]	.	(4g/	.	1r	.
16G\J)	.	.	.	.	.	.	.
[8c\J	.	8ee\J	.	.	.	.	.
(16c\LL]	.	8ff\L	.	8A/L) 8f/	.	.	.
16d\J)	.	.	.	.	.	.	.
[8c\J	.	8A\J) 8f\	.	[8ff\J	.	.	.
*	*	*^	*	*	*	*	*
(8c\L]	<	2A\	(4g/	.	2ff\]	<	.	.
8E\J	.	.	.	.	.	.	.	.
4F\	.	.	4f/)	<	.	.	.	.
=171	=171	=171	=171	=171	=171	=171	=171	=171
4G\	p	1ryy	1r	.	2ff\	p	8r	.
.	.	.	.	.	.	.	(8c/	.
4F\)	.	.	.	.	.	.	[4a/)	.
(4c\	.	.	.	.	2ee\	.	(16a/LL]	.
.	.	.	.	.	.	.	16g/J)	.
.	.	.	.	.	.	.	[8cc/J	.
[4C/)	.	.	.	.	.	.	(16cc\LL]	.
.	.	.	.	.	.	.	16dd\J)	.
.	.	.	.	.	.	.	[8cc\J	.
*	*	*v	*v	*	*	*	*	*
=172	=172	=172	=172	=172	=172	=172	=172
(4C/]	.	2r	.	2dd\	.	(8cc/L]	.
.	.	.	.	.	.	8f/	.
2CC/)	<	.	.	.	.	8g/	.
.	.	.	.	.	.	[8a/J)	.
.	.	2c\	<	2ee\	<	(16a/LL]	<
.	.	.	.	.	.	16f/J)	.
.	.	.	.	.	.	[8g/J	.
4C/	.	.	.	.	.	(16g/LL]	.
.	.	.	.	.	.	16a/J	.
.	.	.	.	.	.	[8g/J)	.
=173	=173	=173	=173	=173	=173	=173	=173
1r	.	2c\	p	8r	.	(4g/]	p
.	.	.	.	(8g/	p	.	.
.	.	.	.	[4ee\)	.	2G/)	.
.	.	2B/	.	(16ee\LL]	.	.	.
.	.	.	.	16dd\J)	.	.	.
.	.	.	.	[8gg\J	.	.	.
.	.	.	.	(16gg\LL]	.	(4dd\	.
.	.	.	.	16aa\J)	.	.	.
.	.	.	.	[8gg\J	.	.	.
=174	=174	=174	=174	=174	=174	=174	=174
2r	.	2A/	.	(8gg\L]	.	(4cc\)	.
.	.	.	.	8cc\	.	.	.
.	.	.	.	8dd\	.	4ccc\	.
.	.	.	.	[8ee\J)	.	.	.
*clefC4	*clefC4	*	*	*	*	*	*
2f\	<	2B/	<	(16ee\LL]	<	4ddd\	<
.	.	.	.	16cc\J)	.	.	.
.	.	.	.	[8dd\J	.	.	.
.	.	.	.	(16dd\LL]	.	4gg\	.
.	.	.	.	16ee\J)	.	.	.
.	.	.	.	8dd\J	.	.	.
=175	=175	=175	=175	=175	=175	=175	=175
2f\	p	8r	.	(4cc\	p	4aa\)	p
.	.	(8C/	p	.	.	.	.
.	.	[4A/)	.	2c/)	.	4r	.
2e\	.	(16A/LL]	.	.	.	2r	.
.	.	16G/J)	.	.	.	.	.
.	.	[8c/J	.	.	.	.	.
.	.	(16c/LL]	.	[4cc\	.	.	.
.	.	16d/J)	.	.	.	.	.
.	.	[8c/J	.	.	.	.	.
=176	=176	=176	=176	=176	=176	=176	=176
2d\	.	(8c/L]	.	(4cc\]	.	2r	.
.	.	8F/	.	.	.	.	.
.	.	8G/	.	2c/)	.	.	.
.	.	[8A/J)	.	.	.	.	.
2e\	<	(16A/LL]	<	.	.	2cc\	<
.	.	16F/J)	.	.	.	.	.
.	.	[8G/J	.	.	.	.	.
.	.	(16G/LL]	.	[4c/	.	.	.
.	.	16A/J)	.	.	.	.	.
.	.	8G/J	.	.	.	.	.
=177	=177	=177	=177	=177	=177	=177	=177
*clefF4	*clefF4	*	*	*	*	*	*
8r	.	(16E/LL	.	(16c/LL]	.	2cc\	.
.	.	16D/J)	<	16B/J)	<	.	.
(8GG/	<	[8E/J	.	[8c/J	.	.	.
[4E\)	.	(16E/LL]	.	(16c/LL]	.	.	.
.	.	16F/J)	.	16d/J)	.	.	.
.	.	8E/J	.	8c/J	.	.	.
(16E\LL]	.	8r	.	2gg\	.	2b\	<
16D\J)	.	.	.	.	.	.	.
[8G\J	.	[8B/L	.	.	.	.	.
(16G\LL]	.	(16B/L]	.	.	.	.	.
16A\J)	.	16c/J)	.	.	.	.	.
[8G\J	.	8B/J	.	.	.	.	.
=178	=178	=178	=178	=178	=178	=178	=178
(8G\L]	.	8r	.	2gg\	.	2a/	.
8C\	.	[8c\L	.	.	.	.	.
8D\	.	(16c\L]	.	.	.	.	.
.	.	16d\J)	.	.	.	.	.
8E\J)	.	8c\J	.	.	.	.	.
(16E\LL	.	2g\	.	2ff\	.	2b\	.
16C\J)	.	.	.	.	.	.	.
[8D\J	.	.	.	.	.	.	.
(16D\LL]	.	.	.	.	.	.	.
16E\J)	.	.	.	.	.	.	.
[8D\J	.	.	.	.	.	.	.
=179	=179	=179	=179	=179	=179	=179	=179
(16D/LL]	.	2g\	.	2ee\	.	2cc\	.
16BB/J)	.	.	.	.	.	.	.
[8C/J	.	.	.	.	.	.	.
(16C/LL]	.	.	.	.	.	.	.
16D/J)	.	.	.	.	.	.	.
[8C/J	.	.	.	.	.	.	.
(16C/LL]	.	2g\	.	[2dd\	.	2ff\	.
16AA/J)	.	.	.	.	.	.	.
[8BB/J	.	.	.	.	.	.	.
(16BB/LL]	.	.	.	.	.	.	.
16C/J)	.	.	.	.	.	.	.
8BB/J	.	.	.	.	.	.	.
=180	=180	=180	=180	=180	=180	=180	=180
2C/	.	8g\L	.	(16dd\LL]	.	2ee\	.
.	.	.	.	16b\J)	>	.	.
.	.	(8G/J	>	[8cc\J	.	.	.
.	.	[4g\)	.	(16cc\LL]	.	.	.
.	.	.	.	16dd\J)	.	.	.
.	.	.	.	8cc\J	.	.	.
2D/	>	(16g\LL]	.	[2a/	.	[2dd\	>
.	.	16e\J)	.	.	.	.	.
.	.	[8f\J	.	.	.	.	.
.	.	(16f\LL]	.	.	.	.	.
.	.	16g\J)	.	.	.	.	.
.	.	[8f\J	.	.	.	.	.
=181	=181	=181	=181	=181	=181	=181	=181
1AA	p	2f\]	p	(16a/LL]	p	(4dd\]	p
.	.	.	.	16c#/J)	.	.	.
.	.	.	.	[8d/J	.	.	.
.	.	.	.	(16d/LL]	p	2a/)	p
.	.	.	.	16e/J)	.	.	.
.	.	.	.	8d/J	.	.	.
.	.	2e\	p	(4d/	.	.	.
.	.	.	.	4c#/)	.	4a/	.
=182	=182	=182	=182	=182	=182	=182	=182
2D/	p	2A/	pp	2d/	pp	2a/	pp
2r	.	2r	.	2r	.	8r	.
.	.	.	.	.	.	(8c/	.
.	.	.	.	.	.	[4a/)	.
=183	=183	=183	=183	=183	=183	=183	=183
1r	.	8r	.	2r	.	(16a/LL]	.
.	.	.	.	.	.	16g/J)	.
.	.	(8c\	.	.	.	[8cc/J	.
.	.	[4a\)	.	.	.	(16cc/LL]	.
.	.	.	.	.	.	16dd/J)	.
.	.	.	.	.	.	[8cc/J	.
.	.	(16a\LL]	.	8r	.	(8cc/L]	.
.	.	16g\J)	.	.	.	.	.
.	.	[8cc\J	.	(8ccn\	.	8e/J	.
.	.	(16cc\LL]	.	[4aa\)	.	4f/	.
.	.	16dd\J)	.	.	.	.	.
.	.	[8cc\J	.	.	.	.	.
=184	=184	=184	=184	=184	=184	=184	=184
8r	.	8e\L 8cc\]	.	(16aa\LL]	.	4g/	.
.	.	.	.	16gg\J)	.	.	.
(8CC/	.	(8e\J	.	[8ccc\J	.	.	.
4AA/)	.	4f\	.	(16ccc\LL]	.	4f/)	.
.	.	.	.	16ddd\J)	.	.	.
.	.	.	.	[8ccc\J	.	.	.
2FF/	<	4g\	.	(8ccc\L]	.	(8e/	.
.	.	.	.	8ee\	<	4cc\)	<
.	.	[4f\)	<	8ff\	.	.	.
.	.	.	.	8a\J)	.	[8cc\	.
=185	=185	=185	=185	=185	=185	=185	=185
2FF/	p	8f\L]	p	2aa\	p	(4cc\]	p
.	.	(8C/J	.	.	.	.	.
.	.	[4A/)	.	.	.	4.ccc\)	.
2EE/	.	(16A/LL]	.	2gg\	.	.	.
.	.	16G/J)	.	.	.	.	.
.	.	[8c/J	.	.	.	(8ccc\	.
.	.	(16c/LL]	.	.	.	[4ggg\)	.
.	.	16d/J)	.	.	.	.	.
.	.	[8c/J	.	.	.	.	.
=186	=186	=186	=186	=186	=186	=186	=186
2DD/	.	(8c/L]	.	2ff\	.	8ggg\]	.
.	.	8F/	.	.	.	(8ggg\	.
.	.	8G/	.	.	.	4fff\)	.
.	.	8A/J)	.	.	.	.	.
2EE/	.	(16A/LL	.	(8gg\L	.	2ccc\	.
.	.	16F/J)	.	.	.	.	.
.	.	[8G/J	.	8cc\J	.	.	.
.	.	(16G/LL]	.	[4gg\)	.	.	.
.	.	16A/J)	.	.	.	.	.
.	.	8G/J	.	.	.	.	.
=187	=187	=187	=187	=187	=187	=187	=187
2FF/	.	(8A/L	.	(16gg\LL]	.	(2ccc\	.
.	.	.	.	16ee\J)	.	.	.
.	.	8C/J)	.	[8ff\J	.	.	.
.	.	4a\	.	(16ff\LL]	.	.	.
.	.	.	.	16gg\J)	.	.	.
.	.	.	.	[8ff\J	.	.	.
2GG/	<	(8d\L	.	(16ff\LL]	.	4bb\	.
.	.	.	.	16ee\J)	<	.	.
.	.	8B\J)	<	[8ff\J	.	.	.
.	.	4d\ 4b\	.	(16ff\LL]	.	4fff\)	<
.	.	.	.	16gg\J)	.	.	.
.	.	.	.	8ff\J	.	.	.
=188	=188	=188	=188	=188	=188	=188	=188
8FF/L	.	(16cc\LL	.	4a\ 4ff\	.	2fff\	.
.	.	16b\J)	.	.	.	.	.
(8CC/J	.	[8cc\J	.	.	.	.	.
[4AA/)	.	(16cc\LL]	.	4f/	.	.	.
.	.	16dd\J)	.	.	.	.	.
.	.	[8cc\J	.	.	.	.	.
(16AA/LL]	.	(16cc\LL]	.	16c/LL	.	2eee\	.
16GG/J)	.	16d\J)	.	16b/J	.	.	.
8C/J	f	[8e\J	.	[8cc/J	.	.	.
4CC/ 4C/	.	(16e\LL]	.	(16cc\LL]	.	.	.
.	.	16f\J	.	16dd\J	.	.	.
.	.	[8e\J)	.	[8cc\J)	.	.	.
=189	=189	=189	=189	=189	=189	=189	=189
2CC/ 2C/	.	16e\LL]	f	16cc\LL]	f	2ddd\	f
.	.	16e\J	.	16cc\J	.	.	.
.	.	[8f\J	.	[8dd\J	.	.	.
.	.	(16f\LL]	.	(16dd\LL]	.	.	.
.	.	16g\J)	.	16ee\J)	.	.	.
.	.	8f\J	.	[8dd\J	.	.	.
2BB/	.	(16g\LL	.	16dd\LL]	.	2eee\	.
.	.	16B\J)	.	16dd\J	.	.	.
.	.	[8c\J	.	[8ee\J	.	.	.
.	.	(16c\LL]	.	(16ee\LL]	.	.	.
.	.	16d\J)	.	16ff\J)	.	.	.
.	.	8c\J	.	[8ee\J	.	.	.
=190	=190	=190	=190	=190	=190	=190	=190
2AA/	.	(16c\LL	.	(16ee\LL]	.	2fff\	.
.	.	16b\J)	.	16dd\J)	.	.	.
.	.	[8cc\J	.	[8ee\J	.	.	.
.	.	(16cc\LL]	.	(16ee\LL]	.	.	.
.	.	16dd\J)	.	16ff\J)	.	.	.
.	.	8cc\J	.	8ee\J	.	.	.
2BB/	.	(16f\LL	.	(16dd\LL	.	2ggg\	.
.	.	16c\J)	.	16ee\J)	.	.	.
.	.	[8d\J	.	[8dd\J	.	.	.
.	.	(16d\LL]	.	(16dd\LL]	.	.	.
.	.	16c\J)	.	16ee\J)	.	.	.
.	.	8d\J	.	8dd\J	.	.	.
=191	=191	=191	=191	=191	=191	=191	=191
2CC/ 2C/	.	2C/ 2c/	.	2c/ 2a/	.	1fff	.
2D/	.	2f\	.	2b\	.	.	.
=192	=192	=192	=192	=192	=192	=192	=192
[2CC/ 2C/	.	2G/ 2e/	.	2e/ 2cc/	.	2ggg\	.
(16CC/LL] 16C/	.	2f\	.	2b\	.	2aaa\	.
16BB/J)	.	.	.	.	.	.	.
[8C/J	.	.	.	.	.	.	.
(16C/LL]	.	.	.	.	.	.	.
16D/J)	.	.	.	.	.	.	.
8C/J	.	.	.	.	.	.	.
=193	=193	=193	=193	=193	=193	=193	=193
2CC/ 2C/	.	2G/ 2e/	.	2e/ 2cc/	.	1ggg	.
2D\	.	2B/	.	2f/	.	.	.
=194	=194	=194	=194	=194	=194	=194	=194
8r	.	8r	.	2r	.	2ggg\	.
(8C\L	>	(8E/L	>	.	.	.	.
8D\	.	8F/	.	.	.	.	.
[8E\J)	.	[8G/J)	.	.	.	.	.
(16E\LL]	.	(16G/LL]	.	8r	.	2fff\	>
16C\J)	.	16E/J)	.	.	.	.	.
[8D\J	.	[8F/J	.	(8B/L	>	.	.
(16D\LL]	.	(16F/LL]	.	8c/	.	.	.
16E\J)	.	16G/J)	.	.	.	.	.
[8F\J	.	[8A/J	.	8d/J)	.	.	.
=195	=195	=195	=195	=195	=195	=195	=195
(8F\L]	.	(8A/L]	.	8r	.	2ccc\	.
8E\	.	8G/	.	(8c/L	.	.	.
8F\	.	8A/	.	8d/	.	.	.
[8G\J)	.	[8c/J)	.	8e/J)	.	.	.
(16G\LL]	.	(16c/LL]	.	(8c/L	.	2aa\	.
16E\J)	.	16G/J)	.	.	.	.	.
(8.F\J	.	(8.A/J	.	[8cc/J)	.	.	.
.	.	.	.	(16cc\LL]	.	.	.
16G\LK)	.	16c\LK)	.	16ee\J)	.	.	.
8A\J	.	8cc\J	.	[8ff\J	.	.	.
=196	=196	=196	=196	=196	=196	=196	=196
8r	.	(8C/L	p	(8ff\L]	p	(2gg\	p
(8CC/L	p	8E/	.	8ee\	.	.	.
8DD/	.	8F/	.	8dd\	.	.	.
[8EE/J)	.	[8G/J)	.	[8cc\J)	.	.	.
(16EE/LL]	p	(16G/LL]	p	(16cc\LL]	p	2ff\)	p
16CC/J)	.	16E/J)	.	16a\J)	.	.	.
[8DD/J	.	[8F/J	.	[8b\J	.	.	.
(16DD/LL]	.	(16F/LL]	.	(16b\LL]	.	.	.
16EE/J)	.	16G/J)	.	16cc\J)	.	.	.
8FF/J	.	8A/J	.	[8dd\J	.	.	.
=197	=197	=197	=197	=197	=197	=197	=197
(16GG\LL	.	(16B\LL	.	(16dd\LL]	.	2ff\	.
16A\J)	.	16c\J)	.	16cc\J)	.	.	.
[8B\J	.	[8d\J	.	[8b\J	.	.	.
(16B\LL]	.	(16d\LL]	.	(16b\LL]	.	.	.
16c\J)	.	16e\J)	.	16a\J)	.	.	.
8d\J	.	8f\J	.	8g\J	.	.	.
4r	.	4r	.	2cc\	<	2ee\	pp
4C/	<	4G/ 4e/	<	.	.	.	.
=198	=198	=198	=198	=198	=198	=198	=198
2C/	p	2G/ 2e/	p	2cc\	p	2r	.
2GG/	<	2G/ 2d/	<	2b\	.	2ff\	<
=199	=199	=199	=199	=199	=199	=199	=199
2r	>	2d\	>	2r	.	2ff\	p
2C/	.	2c\	>	2ccc\	.	2ee\	<
=200	=200	=200	=200	=200	=200	=200	=200
2C/	.	2e\ 2cc\	.	2ccc\	.	2r	>
2GG/	<	2d\ 2f\	<	4bb\	<	2ddd\	<
.	.	.	.	4b\ 4ff\	.	.	.
=201	=201	=201	=201	=201	=201	=201	=201
2.CC/ 2.GG/	.	2.B\ 2.f\	.	2.b\ 2.ff\	.	2.ddd\	.
4CC/ 4GG/	f	4C/ 4c/	f	4g\ 4ee\	f	4ccc\	f
=202	=202	=202	=202	=202	=202	=202	=202
(2FF/	p	(2C/ 2c/	p	8r	.	[1ccc	p
.	.	.	.	(8c/	p	.	.
.	.	.	.	[4a/)	.	.	.
[2EE/)	.	2G/	.	(16a\LL]	.	.	.
.	.	.	.	16g\J)	.	.	.
.	.	.	.	[8cc\J	.	.	.
.	.	.	.	(16cc\LL]	.	.	.
.	.	.	.	16dd\J)	.	.	.
.	.	.	.	[8cc\J	.	.	.
=203	=203	=203	=203	=203	=203	=203	=203
8EE/L]	.	2F/	.	(8cc/L]	.	1ccc_	.
(8EE/J	.	.	.	8f/	.	.	.
4.DD/	.	.	.	8g/	.	.	.
.	.	.	.	[8a/J)	.	.	.
.	.	2E/)	.	(16a/LL]	.	.	.
.	.	.	.	16f/J)	.	.	.
8D/	.	.	.	[8g/J	.	.	.
4C/)	.	.	.	(16g/LL]	.	.	.
.	.	.	.	16a/J)	.	.	.
.	.	.	.	8g/J	.	.	.
=204	=204	=204	=204	=204	=204	=204	=204
[1CC [1C	.	(2f\	.	(4a/	.	8ccc\L]	.
.	.	.	.	.	.	(8cc\J	.
.	.	.	.	2cc\)	.	[4aa\)	.
.	.	[2e\)	.	.	.	(16aa\LL]	.
.	.	.	.	.	.	16gg\J)	.
.	.	.	.	.	.	[8ccc\J	.
.	.	.	.	4cc\	.	(16ccc\LL]	.
.	.	.	.	.	.	16ddd\J)	.
.	.	.	.	.	.	[8ccc\J	.
=205	=205	=205	=205	=205	=205	=205	=205
1CC_ 1C_	.	8e\L]	.	(2ff\	.	(8ccc\L]	.
.	.	(8e\J	.	.	.	8ff\	.
.	.	4.d\	.	.	.	8gg\	.
.	.	.	.	.	.	[8aa\J)	.
.	.	.	.	2ee\)	.	(16aa\LL]	.
.	.	.	.	.	.	16ff\J)	.
.	.	8dd\	.	.	.	[8gg\J	.
.	.	4cc\)	.	.	.	(16gg\LL]	.
.	.	.	.	.	.	16aa\J)	.
.	.	.	.	.	.	8gg\J	.
=206	=206	=206	=206	=206	=206	=206	=206
8CC/] 8C/]	.	1C 1c	.	(8a\L	.	(2fff\	.
(8CC/	.	.	.	8dd\	.	.	.
[4AA/)	.	.	.	8cc\	.	.	.
.	.	.	.	8ff\J)	.	.	.
(16AA/LL]	.	.	.	2gg\	.	2eee\	.
16GG/J)	.	.	.	.	.	.	.
[8C/J	.	.	.	.	.	.	.
(16C/LL]	.	.	.	.	.	.	.
16D/J)	.	.	.	.	.	.	.
8C/J	.	.	.	.	.	.	.
=207	=207	=207	=207	=207	=207	=207	=207
2D/	.	2f\	.	2ff\	.	2ddd\	.
[2C/	.	[2G\ [2e\	.	[2gg\	.	[2eee\)	.
=208	=208	=208	=208	=208	=208	=208	=208
4C/]	.	4G\] 4e\]	.	(4gg\]	.	4eee\]	.
(4C'/	<	(4G'\ 4g'\	<	4ccc'\	<	(4eee'\	<
4C'/	.	4G'\ 4f'\	.	4ccc'\	.	4ddd'\	.
4C'/)	.	4G'\) 4g'\	.	4ccc'\)	.	4eee'\)	.
=209	=209	=209	=209	=209	=209	=209	=209
2FF/	p	2A\ 2f\	p	2a\ 2ccc\	p	2fff\	p
2r	.	2a\	.	2cc\	.	2r	.
=210	=210	=210	=210	=210	=210	=210	=210
*clefC4	*clefC4	*	*	*	*	*	*
[4f\	.	[4cc\	.	[4ccc\	.	[4aaa\	.
8f\L_	p	8cc\L_	p	8ccc\L_	p	8aaa\L_	p
8f\J]	.	8cc\J]	.	8ccc\J]	.	8aaa\J]	.
[4f\	.	[4a\	.	[4cc\ [4aa\	.	[4aaa\	.
8f\L_	.	8a\L_	.	8cc\L_ 8aa\_	.	8aaa\L_	.
8f\J]	.	8a\J]	.	8cc\J] 8aa\]	.	8aaa\J]	.
=211	=211	=211	=211	=211	=211	=211	=211
2f;\	pp	2a;\	pp	2cc;\ 2aa;\	pp	2fff;\	pp
==	==	==	==	==	==	==	==
*-	*-	*-	*-	*-	*-	*-	*-
!!!ENC: Don Anthony
!!!END: 2006/08//
!!!ONB: Converted to Humdrum by Craig Sapp 2006/08/18/ from MusicXML
